; generated by Slic3r 1.2.9 on 2017-01-08 at 19:01:24

; external perimeters extrusion width = 0.50mm
; perimeters extrusion width = 0.50mm
; infill extrusion width = 0.50mm
; solid infill extrusion width = 0.50mm
; top infill extrusion width = 0.50mm
; support material extrusion width = 0.40mm

M107
M190 S70 ; set bed temperature
M104 S228 ; set temperature
G28 ; home all axes
M109 S228 ; wait for temperature to be reached
G21 ; set units to millimeters
G90 ; use absolute coordinates
M82 ; use absolute distances for extrusion
G92 E0
G1 E-0.50000 F2400.00000
G92 E0
G1 Z0.250 F9600.000
G1 X41.705 Y46.006 F9600.000
G1 E0.50000 F2400.00000
M204 S600
G1 X42.182 Y45.607 E0.50861 F1800.000
G1 X43.003 Y45.030 E0.52251
G1 X43.877 Y44.536 E0.53642
G1 X44.795 Y44.129 E0.55033
G1 X45.747 Y43.815 E0.56422
G1 X46.728 Y43.595 E0.57814
G1 X47.723 Y43.473 E0.59203
G1 X48.214 Y43.449 E0.59884
G1 X121.727 Y43.449 E1.61721
G1 X122.218 Y43.473 E1.62402 F1800.000
G1 X123.214 Y43.595 E1.63792
G1 X123.723 Y43.697 E1.64511
G1 X124.684 Y43.963 E1.65893
G1 X125.147 Y44.129 E1.66574
G1 X126.065 Y44.535 E1.67964
G1 X126.521 Y44.780 E1.68682
G1 X127.365 Y45.315 E1.70065
G1 X128.156 Y45.933 E1.71457
G1 X128.882 Y46.625 E1.72846
G1 X129.212 Y46.989 E1.73527
G1 X129.538 Y47.387 E1.74239
G1 X130.115 Y48.207 E1.75628
G1 X130.368 Y48.629 E1.76310
G1 X130.820 Y49.524 E1.77699
G1 X131.016 Y49.999 E1.78411
G1 X131.330 Y50.952 E1.79801
G1 X131.550 Y51.931 E1.81192
G1 X131.672 Y52.927 E1.82582
G1 X131.702 Y53.650 E1.83584
G1 X131.761 Y66.301 E2.01110
G1 X131.730 Y67.074 E2.02181
G1 X131.608 Y68.069 E2.03569
G1 X131.389 Y69.048 E2.04959
G1 X131.075 Y70.001 E2.06350
G1 X130.667 Y70.921 E2.07743
G1 X130.174 Y71.793 E2.09132
G1 X129.595 Y72.616 E2.10524
G1 X128.941 Y73.375 E2.11914
G1 X128.215 Y74.067 E2.13302
G1 X127.424 Y74.685 E2.14693
G1 X126.576 Y75.223 E2.16084
G1 X125.679 Y75.674 E2.17475
G1 X124.743 Y76.036 E2.18865
G1 X123.776 Y76.304 E2.20255
G1 X122.787 Y76.477 E2.21646
G1 X121.786 Y76.551 E2.23037
G1 X48.529 Y76.557 E3.24519
G1 X47.782 Y76.527 E3.25555
G1 X46.786 Y76.405 E3.26945
G1 X45.806 Y76.185 E3.28336
G1 X44.853 Y75.871 E3.29726
G1 X44.374 Y75.672 E3.30445
G1 X43.483 Y75.223 E3.31828
G1 X43.062 Y74.970 E3.32508
G1 X42.241 Y74.393 E3.33899
G1 X41.844 Y74.067 E3.34610
G1 X41.118 Y73.375 E3.35999
G1 X40.461 Y72.613 E3.37392
G1 X39.885 Y71.793 E3.38781
G1 X39.632 Y71.372 E3.39460
G1 X39.390 Y70.919 E3.40172
G1 X38.984 Y70.001 E3.41563
G1 X38.670 Y69.048 E3.42954
G1 X38.450 Y68.069 E3.44344
G1 X38.378 Y67.583 E3.45024
G1 X38.328 Y67.073 E3.45734
G1 X38.298 Y66.350 E3.46737
G1 X38.239 Y53.699 E3.64262
G1 X38.269 Y52.927 E3.65332
G1 X38.392 Y51.931 E3.66722
G1 X38.611 Y50.952 E3.68112
G1 X38.925 Y49.999 E3.69503
G1 X39.332 Y49.081 E3.70894
G1 X39.574 Y48.628 E3.71605
G1 X40.111 Y47.781 E3.72994
G1 X40.403 Y47.386 E3.73675
G1 X41.059 Y46.625 E3.75067
G1 X41.650 Y46.056 E3.76202
G1 X42.005 Y46.336 F9600.000
G4 P30
G1 X42.448 Y45.966 E3.77002 F1800.000
G1 X43.233 Y45.413 E3.78332
G1 X44.067 Y44.939 E3.79662
G1 X44.945 Y44.549 E3.80992
G1 X45.856 Y44.248 E3.82321
G1 X46.793 Y44.037 E3.83652
G1 X47.745 Y43.919 E3.84981
G1 X48.236 Y43.895 E3.85662
G1 X121.705 Y43.895 E4.87438
G1 X122.196 Y43.919 E4.88119 F1800.000
G1 X123.148 Y44.037 E4.89449
G1 X123.614 Y44.130 E4.90107
G1 X124.533 Y44.384 E4.91428
G1 X124.996 Y44.549 E4.92109
G1 X125.874 Y44.939 E4.93439
G1 X126.292 Y45.163 E4.94095
G1 X127.099 Y45.673 E4.95418
G1 X127.857 Y46.264 E4.96750
G1 X128.552 Y46.925 E4.98078
G1 X128.881 Y47.289 E4.98758
G1 X129.180 Y47.652 E4.99410
G1 X129.732 Y48.436 E5.00739
G1 X129.986 Y48.858 E5.01420
G1 X130.416 Y49.715 E5.02749
G1 X130.596 Y50.149 E5.03399
G1 X130.897 Y51.060 E5.04729
G1 X131.108 Y51.997 E5.06059
G1 X131.226 Y52.949 E5.07389
G1 X131.256 Y53.652 E5.08363
G1 X131.315 Y66.303 E5.25889
G1 X131.285 Y67.052 E5.26927
G1 X131.167 Y68.003 E5.28255
G1 X130.956 Y68.940 E5.29584
G1 X130.654 Y69.851 E5.30914
G1 X130.264 Y70.730 E5.32247
G1 X129.791 Y71.564 E5.33575
G1 X129.237 Y72.349 E5.34906
G1 X128.610 Y73.075 E5.36235
G1 X127.915 Y73.736 E5.37563
G1 X127.158 Y74.326 E5.38894
G1 X126.346 Y74.840 E5.40224
G1 X125.489 Y75.271 E5.41554
G1 X124.593 Y75.616 E5.42884
G1 X123.668 Y75.871 E5.44213
G1 X122.721 Y76.035 E5.45543
G1 X121.764 Y76.105 E5.46873
G1 X48.529 Y76.111 E6.48325
G1 X47.804 Y76.081 E6.49330
G1 X46.852 Y75.963 E6.50660
G1 X45.915 Y75.752 E6.51990
G1 X45.004 Y75.451 E6.53320
G1 X44.564 Y75.268 E6.53979
G1 X43.712 Y74.840 E6.55300
G1 X43.291 Y74.588 E6.55980
G1 X42.506 Y74.034 E6.57310
G1 X42.143 Y73.736 E6.57961
G1 X41.448 Y73.075 E6.59289
G1 X40.820 Y72.348 E6.60621
G1 X40.268 Y71.564 E6.61950
G1 X40.015 Y71.143 E6.62629
G1 X39.794 Y70.729 E6.63280
G1 X39.404 Y69.851 E6.64610
G1 X39.103 Y68.940 E6.65941
G1 X38.892 Y68.003 E6.67270
G1 X38.820 Y67.517 E6.67951
G1 X38.774 Y67.051 E6.68600
G1 X38.744 Y66.348 E6.69575
G1 X38.685 Y53.697 E6.87101
G1 X38.715 Y52.949 E6.88137
G1 X38.761 Y52.482 E6.88787
G1 X38.925 Y51.536 E6.90116
G1 X39.180 Y50.611 E6.91446
G1 X39.346 Y50.149 E6.92126
G1 X39.735 Y49.271 E6.93456
G1 X40.209 Y48.436 E6.94787
G1 X40.762 Y47.652 E6.96116
G1 X41.390 Y46.925 E6.97447
G1 X41.949 Y46.387 E6.98522
G1 X42.305 Y46.667 F9600.000
G4 P30
G1 X42.714 Y46.324 E6.99261 F1800.000
G1 X43.462 Y45.795 E7.00531
G1 X44.258 Y45.343 E7.01800
G1 X45.096 Y44.970 E7.03069
G1 X45.964 Y44.681 E7.04338
G1 X46.859 Y44.478 E7.05608
G1 X47.767 Y44.365 E7.06876
G1 X48.258 Y44.341 E7.07557
G1 X121.683 Y44.341 E8.09272
G1 X122.174 Y44.365 E8.09953 F1800.000
G1 X123.083 Y44.478 E8.11222
G1 X123.500 Y44.561 E8.11812
G1 X124.383 Y44.804 E8.13080
G1 X124.846 Y44.970 E8.13761
G1 X125.683 Y45.342 E8.15030
G1 X126.062 Y45.545 E8.15627
G1 X126.833 Y46.032 E8.16889
G1 X127.557 Y46.595 E8.18159
G1 X128.221 Y47.225 E8.19427
G1 X128.551 Y47.588 E8.20107
G1 X128.821 Y47.918 E8.20699
G1 X129.350 Y48.666 E8.21966
G1 X129.603 Y49.088 E8.22648
G1 X130.013 Y49.906 E8.23916
G1 X130.176 Y50.299 E8.24506
G1 X130.464 Y51.169 E8.25775
G1 X130.667 Y52.062 E8.27044
G1 X130.780 Y52.971 E8.28313
G1 X130.810 Y53.654 E8.29260
G1 X130.868 Y66.305 E8.46786
G1 X130.839 Y67.030 E8.47790
G1 X130.725 Y67.938 E8.49058
G1 X130.523 Y68.831 E8.50327
G1 X130.234 Y69.701 E8.51596
G1 X129.861 Y70.539 E8.52868
G1 X129.408 Y71.334 E8.54135
G1 X128.879 Y72.083 E8.55406
G1 X128.279 Y72.776 E8.56674
G1 X127.615 Y73.405 E8.57942
G1 X126.892 Y73.968 E8.59211
G1 X126.117 Y74.457 E8.60481
G1 X125.298 Y74.867 E8.61750
G1 X124.442 Y75.196 E8.63019
G1 X123.559 Y75.438 E8.64288
G1 X122.656 Y75.594 E8.65558
G1 X121.742 Y75.659 E8.66827
G1 X48.529 Y75.665 E9.68249
G1 X47.826 Y75.635 E9.69223
G1 X46.917 Y75.522 E9.70492
G1 X46.023 Y75.319 E9.71762
G1 X45.154 Y75.030 E9.73031
G1 X44.756 Y74.865 E9.73628
G1 X43.942 Y74.457 E9.74890
G1 X43.521 Y74.205 E9.75570
G1 X42.772 Y73.676 E9.76839
G1 X42.443 Y73.405 E9.77429
G1 X41.779 Y72.775 E9.78697
G1 X41.179 Y72.082 E9.79968
G1 X40.650 Y71.334 E9.81236
G1 X40.398 Y70.913 E9.81916
G1 X40.197 Y70.538 E9.82506
G1 X39.824 Y69.701 E9.83776
G1 X39.535 Y68.831 E9.85045
G1 X39.333 Y67.938 E9.86314
G1 X39.261 Y67.452 E9.86994
G1 X39.220 Y67.029 E9.87583
G1 X39.190 Y66.346 E9.88531
G1 X39.132 Y53.695 E10.06056
G1 X39.161 Y52.971 E10.07060
G1 X39.203 Y52.548 E10.07649
G1 X39.358 Y51.645 E10.08918
G1 X39.601 Y50.761 E10.10187
G1 X39.929 Y49.906 E10.11456
G1 X40.139 Y49.462 E10.12136
G1 X40.592 Y48.666 E10.13406
G1 X41.120 Y47.918 E10.14674
G1 X41.721 Y47.225 E10.15944
G1 X42.249 Y46.717 E10.16959
G1 X42.604 Y46.998 F9600.000
G4 P30
G1 X42.980 Y46.683 E10.17638 F1800.000
G1 X43.692 Y46.178 E10.18847
G1 X44.449 Y45.746 E10.20055
G1 X45.246 Y45.390 E10.21264
G1 X46.073 Y45.114 E10.22472
G1 X46.924 Y44.920 E10.23681
G1 X47.789 Y44.811 E10.24889
G1 X48.280 Y44.786 E10.25569
G1 X121.661 Y44.786 E11.27224
G1 X122.152 Y44.811 E11.27905 F1800.000
G1 X123.017 Y44.920 E11.29113
G1 X123.398 Y44.996 E11.29651
G1 X124.233 Y45.224 E11.30850
G1 X124.696 Y45.390 E11.31531
G1 X125.492 Y45.746 E11.32739
G1 X125.834 Y45.929 E11.33277
G1 X126.567 Y46.390 E11.34477
G1 X126.962 Y46.683 E11.35157
G1 X127.621 Y47.255 E11.36366
G1 X128.220 Y47.888 E11.37574
G1 X128.463 Y48.184 E11.38104
G1 X128.967 Y48.895 E11.39312
G1 X129.220 Y49.317 E11.39993
G1 X129.609 Y50.097 E11.41200
G1 X129.755 Y50.450 E11.41730
G1 X129.921 Y50.913 E11.42412
G1 X130.151 Y51.755 E11.43621
G1 X130.298 Y52.616 E11.44830
G1 X130.359 Y53.483 E11.46035
G1 X130.422 Y66.308 E11.63800
G1 X130.393 Y67.008 E11.64771
G1 X130.284 Y67.872 E11.65978
G1 X130.090 Y68.723 E11.67187
G1 X129.814 Y69.550 E11.68395
G1 X129.457 Y70.348 E11.69606
G1 X129.025 Y71.105 E11.70813
G1 X128.520 Y71.817 E11.72023
G1 X127.949 Y72.476 E11.73231
G1 X127.316 Y73.075 E11.74438
G1 X126.626 Y73.609 E11.75647
G1 X125.887 Y74.074 E11.76856
G1 X125.107 Y74.464 E11.78064
G1 X124.292 Y74.775 E11.79273
G1 X123.451 Y75.005 E11.80481
G1 X122.590 Y75.152 E11.81690
G1 X121.720 Y75.214 E11.82898
G1 X48.529 Y75.218 E12.84290
G1 X47.848 Y75.189 E12.85234
G1 X46.983 Y75.080 E12.86442
G1 X46.608 Y75.005 E12.86972
G1 X45.767 Y74.776 E12.88179
G1 X44.947 Y74.462 E12.89396
G1 X44.171 Y74.074 E12.90597
G1 X43.750 Y73.822 E12.91277
G1 X43.432 Y73.609 E12.91807
G1 X42.743 Y73.075 E12.93015
G1 X42.110 Y72.476 E12.94223
G1 X41.780 Y72.112 E12.94903
G1 X41.537 Y71.816 E12.95433
G1 X41.033 Y71.105 E12.96641
G1 X40.781 Y70.684 E12.97320
G1 X40.391 Y69.903 E12.98529
G1 X40.245 Y69.550 E12.99059
G1 X39.968 Y68.723 E13.00267
G1 X39.775 Y67.872 E13.01476
G1 X39.703 Y67.386 E13.02156
G1 X39.665 Y67.007 E13.02684
G1 X39.637 Y66.344 E13.03604
G1 X39.578 Y53.692 E13.21130
G1 X39.607 Y52.993 E13.22100
G1 X39.644 Y52.613 E13.22628
G1 X39.791 Y51.753 E13.23837
G1 X40.021 Y50.912 E13.25045
G1 X40.186 Y50.450 E13.25725
G1 X40.542 Y49.653 E13.26934
G1 X40.975 Y48.895 E13.28143
G1 X41.479 Y48.184 E13.29350
G1 X42.051 Y47.524 E13.30560
G1 X42.549 Y47.048 E13.31514
G1 X42.904 Y47.328 F9600.000
G4 P30
G1 X43.246 Y47.041 E13.32132 F1800.000
G1 X43.921 Y46.561 E13.33280
G1 X44.640 Y46.149 E13.34428
G1 X45.396 Y45.810 E13.35576
G1 X46.182 Y45.547 E13.36724
G1 X46.990 Y45.361 E13.37872
G1 X47.811 Y45.256 E13.39019
G1 X48.302 Y45.232 E13.39700
G1 X121.639 Y45.232 E14.41294
G1 X122.130 Y45.256 E14.41975 F1800.000
G1 X122.952 Y45.361 E14.43123
G1 X123.289 Y45.429 E14.43599
G1 X124.083 Y45.645 E14.44738
G1 X124.545 Y45.810 E14.45419
G1 X125.301 Y46.149 E14.46567
G1 X125.604 Y46.311 E14.47042
G1 X126.301 Y46.749 E14.48183
G1 X126.696 Y47.041 E14.48863
G1 X127.321 Y47.586 E14.50011
G1 X127.885 Y48.183 E14.51150
G1 X128.104 Y48.450 E14.51628
G1 X128.584 Y49.125 E14.52775
G1 X128.837 Y49.546 E14.53456
G1 X129.206 Y50.287 E14.54603
G1 X129.335 Y50.600 E14.55071
G1 X129.501 Y51.063 E14.55753
G1 X129.718 Y51.863 E14.56901
G1 X129.856 Y52.681 E14.58050
G1 X129.913 Y53.505 E14.59195
G1 X129.976 Y66.310 E14.76933
G1 X129.947 Y66.986 E14.77870
G1 X129.842 Y67.807 E14.79017
G1 X129.657 Y68.614 E14.80164
G1 X129.394 Y69.400 E14.81312
G1 X129.054 Y70.157 E14.82462
G1 X128.642 Y70.875 E14.83609
G1 X128.162 Y71.551 E14.84758
G1 X127.618 Y72.176 E14.85905
G1 X127.016 Y72.744 E14.87052
G1 X126.360 Y73.251 E14.88200
G1 X125.658 Y73.691 E14.89348
G1 X124.916 Y74.060 E14.90496
G1 X124.142 Y74.355 E14.91644
G1 X123.342 Y74.572 E14.92791
G1 X122.525 Y74.711 E14.93940
G1 X121.698 Y74.768 E14.95088
G1 X48.529 Y74.772 E15.96449
G1 X47.870 Y74.744 E15.97363
G1 X47.048 Y74.639 E15.98510
G1 X46.716 Y74.573 E15.98979
G1 X45.917 Y74.355 E16.00126
G1 X45.143 Y74.061 E16.01274
G1 X44.699 Y73.851 E16.01954
G1 X43.980 Y73.439 E16.03102
G1 X43.698 Y73.251 E16.03571
G1 X43.043 Y72.744 E16.04719
G1 X42.440 Y72.176 E16.05866
G1 X42.111 Y71.812 E16.06546
G1 X41.896 Y71.550 E16.07016
G1 X41.416 Y70.875 E16.08163
G1 X41.164 Y70.455 E16.08842
G1 X40.794 Y69.713 E16.09991
G1 X40.665 Y69.400 E16.10459
G1 X40.401 Y68.614 E16.11607
G1 X40.216 Y67.807 E16.12755
G1 X40.144 Y67.321 E16.13435
G1 X40.083 Y66.341 E16.14795
G1 X40.024 Y53.690 E16.32320
G1 X40.053 Y53.015 E16.33257
G1 X40.086 Y52.679 E16.33725
G1 X40.224 Y51.862 E16.34873
G1 X40.441 Y51.062 E16.36021
G1 X40.606 Y50.600 E16.36701
G1 X40.946 Y49.844 E16.37849
G1 X41.358 Y49.125 E16.38997
G1 X41.837 Y48.450 E16.40144
G1 X42.382 Y47.824 E16.41293
G1 X42.849 Y47.379 E16.42187
G1 F7680
G1 X43.246 Y47.041 E16.26718
G1 F7680
G1 X43.921 Y46.561 E16.02117
G1 F7680
G1 X44.138 Y46.437 E15.94687
G1 E15.92187 F2400.00000
G92 E0
G1 X108.808 Y57.388 F9600.000
G1 E0.50000 F2400.00000
G1 X106.897 Y54.079 E0.55294 F1800.000
G1 X106.897 Y53.270 E0.56414
G1 X108.808 Y49.961 E0.61708
G1 X109.683 Y49.928 E0.62921
G1 X112.759 Y49.928 E0.67182 F1800.000
G1 X113.633 Y49.961 E0.68394
G1 X115.544 Y53.270 E0.73688
G1 X115.544 Y54.079 E0.74809
G1 X113.633 Y57.388 E0.80103
G1 X112.759 Y57.421 E0.81315
G1 X109.683 Y57.421 E0.85576
G1 X108.883 Y57.391 E0.86685
G1 X113.370 Y56.951 F9600.000
G4 P5
G1 X112.750 Y56.974 E0.87544 F1800.000
G1 X109.691 Y56.974 E0.91782
G1 X109.071 Y56.951 E0.92641
G1 X107.344 Y53.959 E0.97428
G1 X107.344 Y53.390 E0.98217
G1 X109.071 Y50.397 E1.03003
G1 X109.691 Y50.374 E1.03862
G1 X112.750 Y50.374 E1.08100
G1 X113.370 Y50.397 E1.08960
G1 X115.098 Y53.390 E1.13746
G1 X115.098 Y53.959 E1.14535
G1 X113.408 Y56.887 E1.19218
G1 X113.296 Y57.446 F9600.000
G1 X108.376 Y57.532 F9600.000
G1 X61.566 Y57.532 E1.84063 F1800.000
G1 X63.491 Y54.198 E1.89395
G1 X63.491 Y53.151 E1.90846
G1 X61.566 Y49.817 E1.96178
G1 X108.375 Y49.817 E2.61023
G1 X106.451 Y53.151 E2.66355
G1 X106.451 Y54.198 E2.67806
G1 X108.338 Y57.467 E2.73035
G1 F7680
G1 X106.738 Y57.469 E2.25535
G1 E2.23035 F2400.00000
G92 E0
G4 P20
G1 X118.679 Y54.406 F9600.000
G1 E0.50000 F2400.00000
G1 X118.628 Y54.240 E0.50240 F1800.000
G1 X118.573 Y53.674 E0.51027
G4 P8
G1 X118.628 Y53.109 E0.51814
G1 X118.793 Y52.565 E0.52601
G1 X119.061 Y52.064 E0.53389
G1 X119.422 Y51.625 E0.54176
G1 X119.861 Y51.265 E0.54963
G1 X120.362 Y50.997 E0.55750
G1 X120.905 Y50.832 E0.56536
G1 X121.467 Y50.776 E0.57318 F1800.000
G1 X122.035 Y50.832 E0.58110
G1 X122.580 Y50.997 E0.58898
G1 X123.081 Y51.265 E0.59685
G1 X123.520 Y51.625 E0.60472
G1 X123.881 Y52.064 E0.61259
G1 X124.148 Y52.565 E0.62046
G1 X124.313 Y53.109 E0.62833
G1 X124.369 Y53.674 E0.63620
G1 X124.313 Y54.240 E0.64407
G1 X124.148 Y54.784 E0.65194
G1 X123.881 Y55.285 E0.65982
G1 X123.520 Y55.724 E0.66769
G1 X123.081 Y56.084 E0.67556
G1 X122.580 Y56.352 E0.68343
G1 X122.036 Y56.517 E0.69130
G1 X121.471 Y56.573 E0.69917
G1 X120.905 Y56.517 E0.70704
G1 X120.362 Y56.352 E0.71491
G1 X119.861 Y56.084 E0.72278
G1 X119.422 Y55.724 E0.73065
G1 X119.061 Y55.285 E0.73852
G1 X118.793 Y54.784 E0.74639
G1 X118.700 Y54.478 E0.75082
G1 X119.106 Y54.276 F9600.000
G4 P30
G1 X119.068 Y54.152 E0.75261 F1800.000
G1 X119.021 Y53.674 E0.75927
G4 P13
G1 X119.068 Y53.197 E0.76592
G1 X119.208 Y52.737 E0.77257
G1 X119.434 Y52.313 E0.77922
G1 X119.739 Y51.942 E0.78588
G1 X120.110 Y51.638 E0.79253
G1 X120.533 Y51.411 E0.79918
G1 X120.993 Y51.272 E0.80583
G1 X121.467 Y51.225 E0.81243 F1800.000
G1 X121.948 Y51.272 E0.81913
G1 X122.408 Y51.411 E0.82579
G1 X122.832 Y51.638 E0.83244
G1 X123.203 Y51.942 E0.83910
G1 X123.508 Y52.313 E0.84575
G1 X123.734 Y52.737 E0.85240
G1 X123.873 Y53.197 E0.85905
G1 X123.920 Y53.674 E0.86571
G1 X123.873 Y54.152 E0.87236
G1 X123.734 Y54.612 E0.87901
G1 X123.508 Y55.035 E0.88567
G1 X123.203 Y55.407 E0.89232
G1 X122.832 Y55.711 E0.89897
G1 X122.408 Y55.938 E0.90562
G1 X121.949 Y56.077 E0.91228
G1 X121.471 Y56.124 E0.91893
G1 X120.993 Y56.077 E0.92558
G1 X120.533 Y55.938 E0.93223
G1 X120.110 Y55.711 E0.93889
G1 X119.739 Y55.407 E0.94554
G1 X119.434 Y55.035 E0.95219
G1 X119.208 Y54.612 E0.95884
G1 X119.127 Y54.348 E0.96266
G1 X119.533 Y54.147 F9600.000
G4 P30
G1 X119.508 Y54.065 E0.96385 F1800.000
G1 X119.470 Y53.674 E0.96928
G4 P17
G1 X119.508 Y53.284 E0.97472
G1 X119.622 Y52.909 E0.98015
G1 X119.807 Y52.563 E0.98559
G1 X120.056 Y52.259 E0.99102
G1 X120.359 Y52.011 E0.99646
G1 X120.705 Y51.826 E1.00189
G1 X121.080 Y51.712 E1.00732
G1 X121.467 Y51.673 E1.01271 F1800.000
G1 X121.861 Y51.712 E1.01819
