; generated by Slic3r 1.2.9 on 2016-08-11 at 00:25:38

; external perimeters extrusion width = 0.50mm
; perimeters extrusion width = 0.50mm
; infill extrusion width = 0.50mm
; solid infill extrusion width = 0.50mm
; top infill extrusion width = 0.50mm

M107
M190 S60 ; set bed temperature
M104 S210 ; set temperature
G28 ; home all axes
M109 S210 ; wait for temperature to be reached
G21 ; set units to millimeters
G90 ; use absolute coordinates
M82 ; use absolute distances for extrusion
G92 E0
G1 Z0.350 F7800.000
G1 E-2.00000 F1920.00000
G92 E0
G1 X61.015 Y27.896 F7800.000
G1 E2.00000 F1920.00000
M204 S3000
G1 X61.405 Y27.221 E2.00592 F1800.000
G1 X61.723 Y26.807 E2.00989
G1 X62.274 Y26.256 E2.01581
G1 X62.688 Y25.938 E2.01977
G1 X63.363 Y25.548 E2.02570
G1 X63.845 Y25.348 E2.02966
G1 X64.598 Y25.147 E2.03558
G1 X65.116 Y25.078 E2.03955
G1 X65.505 Y25.053 E2.04252
G1 X103.701 Y25.053 E2.33270
G1 X104.091 Y25.078 E2.33567
G1 X104.609 Y25.147 E2.33964 F1800.000
G1 X105.361 Y25.348 E2.34556
G1 X105.844 Y25.548 E2.34952
G1 X106.519 Y25.938 E2.35544
G1 X106.933 Y26.256 E2.35941
G1 X107.484 Y26.807 E2.36533
G1 X107.802 Y27.221 E2.36930
G1 X108.191 Y27.896 E2.37522
G1 X108.391 Y28.378 E2.37919
G1 X108.593 Y29.131 E2.38511
G1 X108.661 Y29.649 E2.38907
G1 X108.686 Y29.981 E2.39161
G1 X109.678 Y81.916 E2.78624
G1 X109.630 Y83.066 E2.79498
G1 X109.467 Y84.290 E2.80437
G1 X109.189 Y85.494 E2.81375
G1 X108.798 Y86.666 E2.82314
G1 X108.302 Y87.785 E2.83244
G1 X108.167 Y88.048 E2.83469
G1 X107.538 Y89.111 E2.84407
G1 X106.810 Y90.110 E2.85346
G1 X105.991 Y91.034 E2.86284
G1 X105.087 Y91.877 E2.87223
G1 X104.108 Y92.630 E2.88162
G1 X103.307 Y93.145 E2.88885
G1 X102.215 Y93.723 E2.89823
G1 X101.073 Y94.195 E2.90762
G1 X99.892 Y94.556 E2.91701
G1 X98.681 Y94.803 E2.92639
G1 X97.453 Y94.934 E2.93578
G1 X97.169 Y94.947 E2.93794
G1 X72.831 Y94.947 E3.12284
G1 X71.600 Y94.843 E3.13222
G1 X70.384 Y94.623 E3.14161
G1 X69.195 Y94.287 E3.15100
G1 X68.927 Y94.195 E3.15316
G1 X67.785 Y93.723 E3.16254
G1 X66.693 Y93.145 E3.17193
G1 X65.661 Y92.465 E3.18131
G1 X64.698 Y91.691 E3.19070
G1 X63.813 Y90.829 E3.20009
G1 X63.015 Y89.886 E3.20947
G1 X62.309 Y88.872 E3.21886
G1 X61.833 Y88.048 E3.22609
G1 X61.703 Y87.795 E3.22825
G1 X61.202 Y86.666 E3.23763
G1 X60.811 Y85.494 E3.24702
G1 X60.586 Y84.569 E3.25425
G1 X60.397 Y83.348 E3.26364
G1 X60.322 Y81.962 E3.27419
G1 X60.520 Y30.027 E3.66875
G1 X60.545 Y29.649 E3.67163
G1 X60.614 Y29.131 E3.67560
G1 X60.815 Y28.378 E3.68152
G1 X60.986 Y27.965 E3.68492
G1 X61.243 Y27.990 F7800.000
G4 P31
G1 X61.600 Y27.371 E3.69035 F1800.000
G1 X61.918 Y26.957 E3.69432
G1 X62.424 Y26.451 E3.69975
G1 X62.838 Y26.133 E3.70372
G1 X63.457 Y25.776 E3.70915
G1 X63.939 Y25.576 E3.71311
G1 X64.630 Y25.391 E3.71855
G1 X65.148 Y25.323 E3.72251
G1 X65.505 Y25.299 E3.72523
G1 X103.701 Y25.299 E4.01542
G1 X104.059 Y25.323 E4.01814
G1 X104.576 Y25.391 E4.02211 F1800.000
G1 X105.267 Y25.576 E4.02754
G1 X105.749 Y25.776 E4.03151
G1 X106.369 Y26.133 E4.03694
G1 X106.783 Y26.451 E4.04091
G1 X107.289 Y26.957 E4.04634
G1 X107.606 Y27.371 E4.05031
G1 X107.964 Y27.990 E4.05574
G1 X108.164 Y28.473 E4.05970
G1 X108.349 Y29.163 E4.06514
G1 X108.417 Y29.681 E4.06910
G1 X108.440 Y29.986 E4.07143
G1 X109.432 Y81.921 E4.46606
G1 X109.359 Y83.313 E4.47666
G1 X109.174 Y84.511 E4.48586
G1 X108.877 Y85.686 E4.49507
G1 X108.565 Y86.585 E4.50230
G1 X108.073 Y87.693 E4.51151
G1 X107.478 Y88.749 E4.52072
G1 X107.330 Y88.978 E4.52279
G1 X106.624 Y89.948 E4.53191
G1 X105.821 Y90.856 E4.54112
G1 X104.935 Y91.683 E4.55032
G1 X103.975 Y92.423 E4.55953
G1 X103.174 Y92.937 E4.56676
G1 X102.102 Y93.504 E4.57597
G1 X100.982 Y93.966 E4.58518
G1 X99.822 Y94.319 E4.59439
G1 X98.635 Y94.561 E4.60360
G1 X97.429 Y94.688 E4.61280
G1 X72.831 Y94.701 E4.79968
G1 X71.365 Y94.561 E4.81087
G1 X70.178 Y94.319 E4.82008
G1 X69.018 Y93.966 E4.82929
G1 X67.887 Y93.499 E4.83858
G1 X66.826 Y92.937 E4.84770
G1 X66.025 Y92.423 E4.85493
G1 X64.868 Y91.513 E4.86612
G1 X64.000 Y90.668 E4.87533
G1 X63.215 Y89.743 E4.88454
G1 X62.522 Y88.749 E4.89374
G1 X62.046 Y87.925 E4.90097
G1 X61.435 Y86.586 E4.91216
G1 X61.050 Y85.436 E4.92137
G1 X60.826 Y84.511 E4.92860
G1 X60.641 Y83.313 E4.93781
G1 X60.568 Y81.963 E4.94808
G1 X60.766 Y30.028 E5.34265
G1 X60.790 Y29.681 E5.34529
G1 X60.858 Y29.163 E5.34926
G1 X61.043 Y28.473 E5.35469
G1 X61.214 Y28.059 E5.35809
G1 X61.470 Y28.084 F7800.000
G4 P31
G1 X61.796 Y27.521 E5.36303 F1800.000
G1 X62.113 Y27.107 E5.36700
G1 X62.574 Y26.647 E5.37194
G1 X62.988 Y26.329 E5.37591
G1 X63.551 Y26.003 E5.38085
G1 X64.034 Y25.804 E5.38482
G1 X64.662 Y25.635 E5.38976
G1 X65.180 Y25.567 E5.39373
G1 X65.505 Y25.546 E5.39620
G1 X103.701 Y25.546 E5.68639
G1 X104.027 Y25.567 E5.68887
G1 X104.544 Y25.635 E5.69283 F1800.000
G1 X105.197 Y25.813 E5.69797
G1 X105.655 Y26.003 E5.70174
G1 X106.219 Y26.329 E5.70669
G1 X106.633 Y26.647 E5.71065
G1 X107.093 Y27.107 E5.71560
G1 X107.411 Y27.521 E5.71956
G1 X107.736 Y28.084 E5.72451
G1 X107.936 Y28.567 E5.72847
G1 X108.105 Y29.195 E5.73342
G1 X108.173 Y29.713 E5.73738
G1 X108.194 Y29.991 E5.73950
G1 X109.185 Y81.925 E6.13413
G1 X109.115 Y83.278 E6.14442
G1 X108.935 Y84.453 E6.15346
G1 X108.644 Y85.605 E6.16248
G1 X108.332 Y86.505 E6.16972
G1 X107.849 Y87.591 E6.17875
G1 X107.129 Y88.835 E6.18967
G1 X106.438 Y89.787 E6.19861
G1 X105.651 Y90.678 E6.20764
G1 X104.783 Y91.490 E6.21667
G1 X103.841 Y92.216 E6.22570
G1 X103.041 Y92.730 E6.23293
G1 X101.989 Y93.285 E6.24196
G1 X100.890 Y93.737 E6.25099
G1 X99.753 Y94.083 E6.26002
G1 X98.588 Y94.319 E6.26905
G1 X97.406 Y94.443 E6.27808
G1 X72.831 Y94.454 E6.46478
G1 X71.412 Y94.319 E6.47561
G1 X70.247 Y94.083 E6.48464
G1 X69.110 Y93.737 E6.49367
G1 X68.000 Y93.280 E6.50279
G1 X66.959 Y92.730 E6.51173
G1 X66.159 Y92.216 E6.51896
G1 X65.038 Y91.335 E6.52979
G1 X64.186 Y90.506 E6.53882
G1 X63.416 Y89.600 E6.54785
G1 X62.736 Y88.626 E6.55688
G1 X62.260 Y87.802 E6.56411
G1 X61.668 Y86.505 E6.57494
G1 X61.290 Y85.378 E6.58397
G1 X61.065 Y84.453 E6.59120
G1 X60.885 Y83.278 E6.60023
G1 X60.814 Y81.963 E6.61024
G1 X61.013 Y30.029 E7.00480
G1 X61.034 Y29.713 E7.00721
G1 X61.102 Y29.195 E7.01117
G1 X61.270 Y28.567 E7.01612
G1 X61.442 Y28.154 E7.01951
G1 X61.698 Y28.179 F7800.000
G4 P31
G1 X61.991 Y27.671 E7.02397 F1800.000
G1 X62.309 Y27.257 E7.02793
G1 X62.724 Y26.842 E7.03239
G1 X63.138 Y26.524 E7.03636
G1 X63.646 Y26.231 E7.04081
G1 X64.128 Y26.031 E7.04478
G1 X64.694 Y25.879 E7.04923
G1 X65.505 Y25.792 E7.05543
G1 X103.701 Y25.792 E7.34561
G1 X103.994 Y25.811 E7.34785
G1 X104.512 Y25.879 E7.35181 F1800.000
G1 X105.103 Y26.041 E7.35646
G1 X105.561 Y26.231 E7.36023
G1 X106.069 Y26.524 E7.36469
G1 X106.483 Y26.842 E7.36865
G1 X106.898 Y27.257 E7.37311
G1 X107.215 Y27.671 E7.37708
G1 X107.509 Y28.179 E7.38153
G1 X107.708 Y28.661 E7.38550
G1 X107.860 Y29.227 E7.38995
G1 X107.928 Y29.745 E7.39392
G1 X107.947 Y29.995 E7.39583
G1 X108.939 Y81.930 E7.79046
G1 X108.871 Y83.243 E7.80045
G1 X108.695 Y84.395 E7.80930
G1 X108.411 Y85.525 E7.81815
G1 X108.100 Y86.424 E7.82538
G1 X107.625 Y87.488 E7.83424
G1 X106.929 Y88.692 E7.84480
G1 X106.251 Y89.626 E7.85356
G1 X105.481 Y90.500 E7.86242
G1 X104.630 Y91.296 E7.87127
G1 X103.708 Y92.008 E7.88012
G1 X102.908 Y92.523 E7.88735
G1 X101.877 Y93.066 E7.89620
G1 X100.799 Y93.508 E7.90505
G1 X99.684 Y93.846 E7.91391
G1 X98.541 Y94.077 E7.92276
G1 X97.382 Y94.198 E7.93161
G1 X72.831 Y94.208 E8.11814
G1 X71.459 Y94.077 E8.12861
G1 X70.316 Y93.846 E8.13746
G1 X69.403 Y93.578 E8.14469
G1 X68.318 Y93.155 E8.15354
G1 X67.278 Y92.630 E8.16240
G1 X66.118 Y91.885 E8.17287
G1 X65.208 Y91.156 E8.18172
G1 X64.372 Y90.345 E8.19058
G1 X63.617 Y89.458 E8.19943
G1 X62.949 Y88.503 E8.20828
G1 X62.473 Y87.678 E8.21551
G1 X61.900 Y86.425 E8.22598
G1 X61.529 Y85.320 E8.23484
G1 X61.305 Y84.395 E8.24207
G1 X61.129 Y83.243 E8.25092
G1 X61.061 Y81.964 E8.26065
G1 X61.259 Y30.030 E8.65521
G1 X61.346 Y29.227 E8.66134
G1 X61.498 Y28.661 E8.66580
G1 X61.669 Y28.248 E8.66920
G1 E6.66920 F1920.00000
G92 E0
G1 X98.499 Y62.505 F7800.000
G1 E2.00000 F1920.00000
G1 X98.543 Y63.217 E2.00542 F1800.000
G1 X98.410 Y63.918 E2.01085
G1 X98.106 Y64.564 E2.01627
G1 X97.651 Y65.114 E2.02169
G1 X97.073 Y65.534 E2.02712
G1 X96.410 Y65.797 E2.03254
G1 X95.701 Y65.886 E2.03796
G1 X94.993 Y65.797 E2.04339
G1 X94.329 Y65.534 E2.04881
G1 X93.752 Y65.114 E2.05423
G1 X93.294 Y64.561 E2.05969
G1 X92.987 Y63.887 E2.06531
G1 X92.859 Y63.217 E2.07050
G1 X92.904 Y62.505 E2.07592
G1 X93.125 Y61.826 E2.08134
G1 X93.507 Y61.223 E2.08677
G1 X94.027 Y60.734 E2.09219
G1 X94.653 Y60.391 E2.09761
G1 X95.344 Y60.213 E2.10304
G1 X96.058 Y60.213 E2.10846 F1800.000
G1 X96.750 Y60.391 E2.11388
G1 X97.375 Y60.734 E2.11931
G1 X97.896 Y61.223 E2.12473
G1 X98.278 Y61.826 E2.13015
G1 X98.475 Y62.433 E2.13501
G1 X98.255 Y62.551 F7800.000
G4 P31
G1 X98.296 Y63.202 E2.13996 F1800.000
G4 P11
G1 X98.174 Y63.842 E2.14491
G1 X97.896 Y64.431 E2.14986
G1 X97.481 Y64.933 E2.15481
G1 X96.954 Y65.316 E2.15976
G1 X96.348 Y65.556 E2.16471
G1 X95.701 Y65.638 E2.16966
G1 X95.055 Y65.556 E2.17461
G1 X94.449 Y65.316 E2.17956
G1 X93.922 Y64.933 E2.18451
G1 X93.505 Y64.429 E2.18948
G1 X93.223 Y63.812 E2.19463
G1 X93.107 Y63.202 E2.19936
G1 X93.148 Y62.551 E2.20431
G1 X93.349 Y61.932 E2.20926
G1 X93.698 Y61.381 E2.21421
G1 X94.173 Y60.935 E2.21916
G1 X94.744 Y60.621 E2.22411
G1 X95.375 Y60.459 E2.22906
G1 X96.027 Y60.459 E2.23401 F1800.000
G1 X96.658 Y60.621 E2.23896
G1 X97.229 Y60.935 E2.24391
G1 X97.704 Y61.381 E2.24886
G1 X98.053 Y61.932 E2.25381
G1 X98.232 Y62.480 E2.25819
G1 X98.011 Y62.598 F7800.000
G4 P31
G1 X98.048 Y63.186 E2.26267 F1800.000
G4 P13
G1 X97.937 Y63.765 E2.26715
G1 X97.686 Y64.298 E2.27162
G1 X97.311 Y64.752 E2.27610
G1 X96.834 Y65.099 E2.28058
G1 X96.286 Y65.316 E2.28506
G1 X95.701 Y65.390 E2.28953
G1 X95.117 Y65.316 E2.29401
G1 X94.569 Y65.099 E2.29849
G1 X94.092 Y64.752 E2.30297
G1 X93.716 Y64.297 E2.30745
G1 X93.460 Y63.737 E2.31213
G1 X93.355 Y63.186 E2.31639
G1 X93.392 Y62.598 E2.32087
G1 X93.574 Y62.037 E2.32535
G1 X93.890 Y61.540 E2.32983
G1 X94.319 Y61.136 E2.33430
G1 X94.836 Y60.852 E2.33878
G1 X95.407 Y60.706 E2.34326
G1 X95.996 Y60.706 E2.34774 F1800.000
G1 X96.567 Y60.852 E2.35221
G1 X97.083 Y61.136 E2.35669
G1 X97.513 Y61.540 E2.36117
G1 X97.829 Y62.037 E2.36565
G1 X97.988 Y62.526 E2.36955
G1 X98.476 Y62.782 F7800.000
G1 E0.36955 F1920.00000
G92 E0
G1 X96.354 Y50.579 F7800.000
G1 E2.00000 F1920.00000
G1 X95.701 Y50.661 E2.00499 F1800.000
G4 P11
G1 X95.229 Y50.601 E2.00861
G1 X95.049 Y50.579 E2.00999
G1 X94.438 Y50.337 E2.01498
G1 X93.906 Y49.950 E2.01998
G1 X93.487 Y49.444 E2.02497
G1 X93.207 Y48.849 E2.02997
G1 X93.084 Y48.203 E2.03496
G1 X93.125 Y47.547 E2.03996
G1 X93.328 Y46.922 E2.04495
G1 X93.680 Y46.366 E2.04995
G1 X94.160 Y45.916 E2.05494
G1 X94.736 Y45.600 E2.05994
G1 X95.373 Y45.436 E2.06493
G1 X96.030 Y45.436 E2.06993 F1800.000
G1 X96.529 Y45.564 E2.07384
G1 X96.667 Y45.600 E2.07492
G1 X97.243 Y45.916 E2.07992
G1 X97.722 Y46.366 E2.08491
G1 X98.074 Y46.922 E2.08991
G1 X98.278 Y47.547 E2.09490
G1 X98.319 Y48.203 E2.09990
G1 X98.196 Y48.849 E2.10489
G1 X97.916 Y49.444 E2.10989
G1 X97.497 Y49.950 E2.11488
G1 X96.965 Y50.337 E2.11988
G1 X96.423 Y50.551 E2.12430
G1 X96.292 Y50.338 F7800.000
G4 P31
G1 X95.701 Y50.413 E2.12882 F1800.000
G4 P13
G1 X95.260 Y50.357 E2.13220
G1 X95.111 Y50.338 E2.13334
G1 X94.557 Y50.119 E2.13787
G1 X94.076 Y49.769 E2.14239
G1 X93.696 Y49.311 E2.14691
G1 X93.443 Y48.772 E2.15143
G1 X93.331 Y48.187 E2.15595
G1 X93.369 Y47.593 E2.16048
G1 X93.553 Y47.027 E2.16500
G1 X93.872 Y46.525 E2.16952
G1 X94.306 Y46.117 E2.17404
G1 X94.827 Y45.831 E2.17856
G1 X95.404 Y45.683 E2.18309
G1 X95.999 Y45.683 E2.18761 F1800.000
G1 X96.575 Y45.831 E2.19213
G1 X97.097 Y46.117 E2.19665
G1 X97.531 Y46.525 E2.20117
G1 X97.850 Y47.027 E2.20570
G1 X98.034 Y47.593 E2.21022
G1 X98.071 Y48.187 E2.21474
G1 X97.960 Y48.772 E2.21926
G1 X97.706 Y49.311 E2.22378
G1 X97.327 Y49.769 E2.22831
G1 X96.845 Y50.119 E2.23283
G1 X96.362 Y50.311 E2.23678
G1 X96.230 Y50.098 F7800.000
G4 P31
G1 X95.701 Y50.165 E2.24083 F1800.000
G4 P15
G1 X95.291 Y50.113 E2.24397
G1 X95.173 Y50.098 E2.24488
G1 X94.677 Y49.902 E2.24893
G1 X94.246 Y49.588 E2.25298
G1 X93.906 Y49.178 E2.25702
G1 X93.679 Y48.695 E2.26107
G1 X93.579 Y48.172 E2.26512
G1 X93.613 Y47.640 E2.26917
G1 X93.777 Y47.133 E2.27322
G1 X94.063 Y46.683 E2.27727
G1 X94.452 Y46.318 E2.28132
G1 X94.919 Y46.061 E2.28537
G1 X95.435 Y45.929 E2.28942
G1 X95.968 Y45.929 E2.29347 F1800.000
G1 X96.406 Y46.041 E2.29690
G1 X96.484 Y46.061 E2.29752
G1 X96.951 Y46.318 E2.30156
G1 X97.340 Y46.683 E2.30561
G1 X97.625 Y47.133 E2.30966
G1 X97.790 Y47.640 E2.31371
G1 X97.823 Y48.172 E2.31776
G1 X97.723 Y48.695 E2.32181
G1 X97.496 Y49.178 E2.32586
G1 X97.157 Y49.588 E2.32991
G1 X96.726 Y49.902 E2.33396
G1 X96.300 Y50.070 E2.33744
G1 X96.076 Y50.573 F7800.000
G1 E0.33744 F1920.00000
G92 E0
G1 X95.701 Y35.886 F7800.000
G1 E2.00000 F1920.00000
G1 X94.993 Y35.797 E2.00542 F1800.000
G1 X94.326 Y35.532 E2.01088
G1 X93.732 Y35.090 E2.01650
G1 X93.297 Y34.564 E2.02169
G1 X92.993 Y33.918 E2.02711
G1 X92.859 Y33.217 E2.03253
G1 X92.904 Y32.505 E2.03796
G1 X93.125 Y31.826 E2.04338
G1 X93.507 Y31.223 E2.04880
G1 X94.027 Y30.734 E2.05423
G1 X94.653 Y30.391 E2.05965
G1 X95.348 Y30.212 E2.06510 F1800.000
G1 X96.089 Y30.221 E2.07073
G1 X96.750 Y30.391 E2.07591
G1 X97.379 Y30.736 E2.08137
G1 X97.912 Y31.250 E2.08699
G1 X98.278 Y31.826 E2.09218
G1 X98.499 Y32.505 E2.09760
G1 X98.543 Y33.217 E2.10302
G1 X98.410 Y33.918 E2.10845
G1 X98.104 Y34.568 E2.11390
G1 X97.625 Y35.133 E2.11953
G1 X97.073 Y35.534 E2.12471
G1 X96.410 Y35.797 E2.13013
G1 X95.776 Y35.877 E2.13499
G1 X95.701 Y35.638 F7800.000
G1 X95.055 Y35.556 E2.13994 F1800.000
G1 X94.447 Y35.315 E2.14491
G1 X93.903 Y34.910 E2.15006
G1 X93.506 Y34.431 E2.15478
G1 X93.229 Y33.842 E2.15973
G1 X93.107 Y33.202 E2.16468
G1 X93.148 Y32.551 E2.16963
G1 X93.349 Y31.932 E2.17459
G1 X93.698 Y31.381 E2.17954
G1 X94.173 Y30.935 E2.18449
G1 X94.744 Y30.621 E2.18944
G1 X95.378 Y30.459 E2.19441 F1800.000
G1 X96.056 Y30.467 E2.19956
G1 X96.658 Y30.621 E2.20428
G1 X97.231 Y30.936 E2.20925
G1 X97.720 Y31.407 E2.21440
G1 X98.053 Y31.932 E2.21913
G1 X98.255 Y32.551 E2.22408
G1 X98.296 Y33.202 E2.22903
G1 X98.174 Y33.842 E2.23398
G1 X97.895 Y34.433 E2.23895
G1 X97.457 Y34.951 E2.24410
G1 X96.954 Y35.316 E2.24882
G1 X96.348 Y35.556 E2.25377
G1 X95.776 Y35.628 E2.25815
G1 X95.701 Y35.390 F7800.000
G1 X95.117 Y35.316 E2.26263 F1800.000
G1 X94.568 Y35.098 E2.26712
G1 X94.074 Y34.730 E2.27180
G1 X93.716 Y34.298 E2.27606
G1 X93.465 Y33.765 E2.28054
G1 X93.355 Y33.186 E2.28501
G1 X93.392 Y32.598 E2.28949
G1 X93.574 Y32.037 E2.29397
G1 X93.890 Y31.540 E2.29845
G1 X94.319 Y31.136 E2.30292
G1 X94.836 Y30.852 E2.30740
G1 X95.407 Y30.705 E2.31189 F1800.000
G1 X96.024 Y30.713 E2.31657
G1 X96.567 Y30.852 E2.32083
G1 X97.084 Y31.137 E2.32531
G1 X97.528 Y31.564 E2.32999
G1 X97.829 Y32.037 E2.33425
G1 X98.011 Y32.598 E2.33873
G1 X98.048 Y33.186 E2.34321
G1 X97.937 Y33.765 E2.34769
G1 X97.686 Y34.299 E2.35217
G1 X97.288 Y34.769 E2.35685
G1 X96.834 Y35.099 E2.36111
G1 X96.286 Y35.316 E2.36559
G1 X95.776 Y35.380 E2.36950
G1 X95.433 Y35.812 F7800.000
G1 E0.36950 F1920.00000
G92 E0
G1 X86.531 Y29.362 F7800.000
G1 E2.00000 F1920.00000
G1 X86.745 Y29.082 E2.00268 F1800.000
G1 X87.025 Y28.868 E2.00536
G1 X87.351 Y28.733 E2.00804
G1 X87.743 Y28.681 E2.01105
G1 X103.685 Y28.684 E2.13216
G1 X104.051 Y28.733 E2.13496
G1 X104.377 Y28.868 E2.13765
G1 X104.657 Y29.082 E2.14033
G1 X104.872 Y29.362 E2.14301
G1 X105.007 Y29.688 E2.14569
G1 X105.059 Y30.080 E2.14869
G1 X105.059 Y65.996 E2.42155
G1 X105.007 Y66.388 E2.42456
G1 X104.872 Y66.714 E2.42724
G1 X104.657 Y66.994 E2.42992
G1 X104.377 Y67.209 E2.43260
G1 X104.051 Y67.344 E2.43528
G1 X103.659 Y67.396 E2.43828
G1 X87.743 Y67.396 E2.55920
G1 X87.351 Y67.344 E2.56220
G1 X87.025 Y67.209 E2.56488
G1 X86.745 Y66.994 E2.56757
G1 X86.531 Y66.714 E2.57025
G1 X86.396 Y66.388 E2.57293
G1 X86.344 Y65.996 E2.57593
G1 X86.344 Y30.080 E2.84879
