; generated by Slic3r 1.2.9 on 2016-08-11 at 00:19:46

; external perimeters extrusion width = 0.50mm
; perimeters extrusion width = 0.50mm
; infill extrusion width = 0.50mm
; solid infill extrusion width = 0.50mm
; top infill extrusion width = 0.50mm

M107
M190 S60 ; set bed temperature
M104 S210 ; set temperature
G28 ; home all axes
M109 S210 ; wait for temperature to be reached
G21 ; set units to millimeters
G90 ; use absolute coordinates
M82 ; use absolute distances for extrusion
G92 E0
G1 Z0.350 F7800.000
G1 E-2.00000 F1920.00000
G92 E0
G1 X62.910 Y38.074 F7800.000
G1 E2.00000 F1920.00000
M204 S3000
G1 X63.228 Y37.660 E2.00397 F1800.000
G1 X63.779 Y37.109 E2.00989
G1 X64.193 Y36.791 E2.01386
G1 X64.868 Y36.401 E2.01978
G1 X65.350 Y36.201 E2.02374
G1 X66.103 Y36.000 E2.02966
G1 X66.621 Y35.932 E2.03363
G1 X67.011 Y35.906 E2.03660
G1 X103.011 Y35.906 E2.31010
G1 X103.400 Y35.932 E2.31307
G1 X103.918 Y36.000 E2.31703 F1800.000
G1 X104.695 Y36.211 E2.32315
G1 X105.153 Y36.401 E2.32692
G1 X105.828 Y36.791 E2.33284
G1 X106.242 Y37.109 E2.33681
G1 X106.793 Y37.660 E2.34273
G1 X107.111 Y38.074 E2.34669
G1 X107.501 Y38.749 E2.35261
G1 X107.700 Y39.231 E2.35658
G1 X107.902 Y39.984 E2.36250
G1 X107.970 Y40.502 E2.36647
G1 X107.996 Y40.891 E2.36943
G1 X107.975 Y79.111 E2.65980
G1 X107.949 Y79.498 E2.66275
G1 X107.881 Y80.016 E2.66671
G1 X107.679 Y80.769 E2.67263
G1 X107.480 Y81.251 E2.67660
G1 X107.090 Y81.926 E2.68252
G1 X106.772 Y82.340 E2.68649
G1 X106.221 Y82.891 E2.69241
G1 X105.807 Y83.209 E2.69637
G1 X105.132 Y83.599 E2.70230
G1 X104.650 Y83.799 E2.70626
G1 X103.897 Y84.000 E2.71218
G1 X103.379 Y84.068 E2.71615
G1 X102.989 Y84.094 E2.71912
G1 X66.989 Y84.094 E2.99262
G1 X66.600 Y84.068 E2.99558
G1 X66.082 Y84.000 E2.99955
G1 X65.329 Y83.799 E3.00547
G1 X64.847 Y83.599 E3.00944
G1 X64.172 Y83.209 E3.01536
G1 X63.758 Y82.891 E3.01933
G1 X63.207 Y82.340 E3.02525
G1 X62.889 Y81.926 E3.02921
G1 X62.499 Y81.251 E3.03513
G1 X62.299 Y80.769 E3.03910
G1 X62.098 Y80.016 E3.04502
G1 X62.030 Y79.498 E3.04899
G1 X62.004 Y79.109 E3.05196
G1 X62.025 Y40.889 E3.34232
G1 X62.051 Y40.502 E3.34527
G1 X62.119 Y39.984 E3.34923
G1 X62.320 Y39.231 E3.35515
G1 X62.520 Y38.749 E3.35912
G1 X62.872 Y38.139 E3.36447
G1 X63.105 Y38.224 F7800.000
G4 P31
G1 X63.423 Y37.810 E3.36844 F1800.000
G1 X63.929 Y37.304 E3.37387
G1 X64.343 Y36.986 E3.37784
G1 X64.962 Y36.629 E3.38327
G1 X65.445 Y36.429 E3.38724
G1 X66.135 Y36.244 E3.39267
G1 X66.653 Y36.176 E3.39664
G1 X67.011 Y36.152 E3.39936
G1 X103.011 Y36.152 E3.67286
G1 X103.368 Y36.176 E3.67558
G1 X103.886 Y36.244 E3.67955 F1800.000
G1 X104.600 Y36.439 E3.68517
G1 X105.059 Y36.629 E3.68894
G1 X105.678 Y36.986 E3.69438
G1 X106.092 Y37.304 E3.69834
G1 X106.598 Y37.810 E3.70378
G1 X106.916 Y38.224 E3.70774
G1 X107.273 Y38.843 E3.71317
G1 X107.473 Y39.326 E3.71714
G1 X107.658 Y40.016 E3.72257
G1 X107.726 Y40.534 E3.72654
G1 X107.750 Y40.891 E3.72926
G1 X107.729 Y79.111 E4.01963
G1 X107.705 Y79.466 E4.02233
G1 X107.637 Y79.984 E4.02629
G1 X107.452 Y80.674 E4.03173
G1 X107.252 Y81.157 E4.03570
G1 X106.895 Y81.776 E4.04113
G1 X106.577 Y82.190 E4.04509
G1 X106.071 Y82.696 E4.05053
G1 X105.657 Y83.014 E4.05449
G1 X105.038 Y83.371 E4.05992
G1 X104.555 Y83.571 E4.06389
G1 X103.865 Y83.756 E4.06932
G1 X103.347 Y83.824 E4.07329
G1 X102.989 Y83.848 E4.07601
G1 X66.989 Y83.848 E4.34951
G1 X66.632 Y83.824 E4.35223
G1 X66.114 Y83.756 E4.35620
G1 X65.424 Y83.571 E4.36163
G1 X64.941 Y83.371 E4.36560
G1 X64.322 Y83.014 E4.37103
G1 X63.908 Y82.696 E4.37500
G1 X63.402 Y82.190 E4.38043
G1 X63.084 Y81.776 E4.38440
G1 X62.727 Y81.157 E4.38983
G1 X62.527 Y80.674 E4.39380
G1 X62.342 Y79.984 E4.39923
G1 X62.274 Y79.466 E4.40320
G1 X62.250 Y79.109 E4.40592
G1 X62.271 Y40.889 E4.69628
G1 X62.295 Y40.534 E4.69898
G1 X62.363 Y40.016 E4.70295
G1 X62.548 Y39.326 E4.70838
G1 X62.748 Y38.843 E4.71235
G1 X63.068 Y38.289 E4.71721
G1 X63.301 Y38.374 F7800.000
G4 P31
G1 X63.619 Y37.960 E4.72118 F1800.000
G1 X64.079 Y37.500 E4.72612
G1 X64.493 Y37.182 E4.73009
G1 X65.057 Y36.857 E4.73503
G1 X65.539 Y36.657 E4.73900
G1 X66.168 Y36.488 E4.74394
G1 X66.685 Y36.420 E4.74791
G1 X67.011 Y36.399 E4.75039
G1 X103.011 Y36.399 E5.02389
G1 X103.336 Y36.420 E5.02637
G1 X103.854 Y36.488 E5.03033 F1800.000
G1 X104.506 Y36.667 E5.03547
G1 X104.964 Y36.856 E5.03924
G1 X105.528 Y37.182 E5.04418
G1 X105.942 Y37.500 E5.04815
G1 X106.402 Y37.960 E5.05309
G1 X106.720 Y38.374 E5.05706
G1 X107.045 Y38.937 E5.06200
G1 X107.245 Y39.420 E5.06597
G1 X107.414 Y40.048 E5.07092
G1 X107.482 Y40.566 E5.07488
G1 X107.503 Y40.891 E5.07736
G1 X107.482 Y79.111 E5.36772
G1 X107.461 Y79.434 E5.37018
G1 X107.393 Y79.951 E5.37415
G1 X107.224 Y80.580 E5.37909
G1 X107.024 Y81.063 E5.38306
G1 X106.699 Y81.626 E5.38800
G1 X106.381 Y82.040 E5.39197
G1 X105.921 Y82.500 E5.39691
G1 X105.507 Y82.818 E5.40088
G1 X104.943 Y83.144 E5.40582
G1 X104.461 Y83.343 E5.40979
G1 X103.833 Y83.512 E5.41473
G1 X103.315 Y83.580 E5.41870
G1 X102.989 Y83.601 E5.42118
G1 X66.989 Y83.601 E5.69468
G1 X66.664 Y83.580 E5.69715
G1 X66.146 Y83.512 E5.70112
G1 X65.518 Y83.343 E5.70606
G1 X65.036 Y83.144 E5.71003
G1 X64.472 Y82.818 E5.71498
G1 X64.058 Y82.500 E5.71894
G1 X63.598 Y82.040 E5.72389
G1 X63.280 Y81.626 E5.72785
G1 X62.955 Y81.063 E5.73279
G1 X62.755 Y80.580 E5.73676
G1 X62.586 Y79.952 E5.74171
G1 X62.518 Y79.434 E5.74567
G1 X62.497 Y79.109 E5.74815
G1 X62.518 Y40.889 E6.03851
G1 X62.539 Y40.566 E6.04097
G1 X62.607 Y40.048 E6.04494
G1 X62.776 Y39.420 E6.04988
G1 X62.976 Y38.938 E6.05385
G1 X63.263 Y38.439 E6.05822
G1 X63.496 Y38.524 F7800.000
G4 P31
G1 X63.814 Y38.110 E6.06219 F1800.000
G1 X64.229 Y37.695 E6.06664
G1 X64.643 Y37.377 E6.07061
G1 X65.151 Y37.084 E6.07507
G1 X65.633 Y36.884 E6.07903
G1 X66.200 Y36.732 E6.08349
G1 X67.011 Y36.645 E6.08968
G1 X103.011 Y36.645 E6.36318
G1 X103.304 Y36.664 E6.36542
G1 X103.821 Y36.732 E6.36938 F1800.000
G1 X104.412 Y36.894 E6.37404
G1 X104.870 Y37.084 E6.37780
G1 X105.378 Y37.377 E6.38226
G1 X105.792 Y37.695 E6.38623
G1 X106.207 Y38.110 E6.39068
G1 X106.525 Y38.524 E6.39465
G1 X106.818 Y39.032 E6.39910
G1 X107.018 Y39.514 E6.40307
G1 X107.169 Y40.081 E6.40752
G1 X107.238 Y40.598 E6.41149
G1 X107.257 Y40.891 E6.41372
G1 X107.257 Y56.891 E6.53528
G1 X107.236 Y79.111 E6.70408
G1 X107.148 Y79.919 E6.71026
G1 X106.997 Y80.486 E6.71472
G1 X106.797 Y80.968 E6.71869
G1 X106.504 Y81.476 E6.72314
G1 X106.186 Y81.890 E6.72711
G1 X105.771 Y82.305 E6.73156
G1 X105.357 Y82.623 E6.73553
G1 X104.849 Y82.916 E6.73998
G1 X104.367 Y83.116 E6.74395
G1 X103.800 Y83.267 E6.74841
G1 X102.989 Y83.355 E6.75460
G1 X66.989 Y83.355 E7.02810
G1 X66.179 Y83.267 E7.03430
G1 X65.612 Y83.116 E7.03875
G1 X65.130 Y82.916 E7.04272
G1 X64.622 Y82.623 E7.04718
G1 X64.208 Y82.305 E7.05114
G1 X63.793 Y81.890 E7.05560
G1 X63.475 Y81.476 E7.05956
G1 X63.182 Y80.968 E7.06402
G1 X62.982 Y80.486 E7.06799
G1 X62.831 Y79.919 E7.07244
G1 X62.743 Y79.109 E7.07864
G1 X62.764 Y40.889 E7.36900
G1 X62.852 Y40.081 E7.37518
G1 X63.003 Y39.514 E7.37963
G1 X63.203 Y39.032 E7.38360
G1 X63.459 Y38.589 E7.38748
G1 E5.38748 F1920.00000
G92 E0
G1 X72.485 Y72.480 F7800.000
G1 E2.00000 F1920.00000
G1 X72.065 Y73.058 E2.00542 F1800.000
G1 X71.515 Y73.513 E2.01085
G1 X70.870 Y73.817 E2.01627
G1 X70.168 Y73.951 E2.02169
G1 X69.456 Y73.906 E2.02712
G1 X68.777 Y73.685 E2.03254
G1 X68.171 Y73.301 E2.03799
G1 X67.670 Y72.755 E2.04362
G1 X67.342 Y72.157 E2.04880
G1 X67.163 Y71.462 E2.05426
G1 X67.172 Y70.721 E2.05988
G1 X67.342 Y70.060 E2.06507
G1 X67.686 Y69.435 E2.07049
G1 X68.174 Y68.914 E2.07591
G1 X68.780 Y68.530 E2.08137
G1 X69.487 Y68.309 E2.08699
G1 X70.168 Y68.266 E2.09218 F1800.000
G1 X70.870 Y68.400 E2.09760
G1 X71.515 Y68.704 E2.10302
G1 X72.065 Y69.159 E2.10845
G1 X72.485 Y69.737 E2.11387
G1 X72.748 Y70.400 E2.11929
G1 X72.837 Y71.109 E2.12472
G1 X72.748 Y71.817 E2.13014
G1 X72.513 Y72.411 E2.13499
G1 X72.267 Y72.361 F7800.000
G4 P31
G1 X71.884 Y72.888 E2.13994 F1800.000
G1 X71.382 Y73.303 E2.14490
G1 X70.793 Y73.581 E2.14985
G1 X70.153 Y73.703 E2.15480
G1 X69.502 Y73.662 E2.15975
G1 X68.883 Y73.461 E2.16470
G1 X68.330 Y73.110 E2.16967
G1 X67.872 Y72.610 E2.17482
G1 X67.573 Y72.065 E2.17954
G1 X67.410 Y71.432 E2.18451
G1 X67.418 Y70.754 E2.18966
G1 X67.573 Y70.152 E2.19439
G1 X67.886 Y69.581 E2.19934
G1 X68.333 Y69.106 E2.20429
G1 X68.885 Y68.755 E2.20926
G1 X69.532 Y68.553 E2.21441
G1 X70.153 Y68.514 E2.21913 F1800.000
G1 X70.793 Y68.636 E2.22408
G1 X71.382 Y68.914 E2.22903
G1 X71.884 Y69.329 E2.23398
G1 X72.267 Y69.856 E2.23893
G1 X72.507 Y70.462 E2.24388
G1 X72.589 Y71.109 E2.24884
G1 X72.507 Y71.755 E2.25379
G1 X72.295 Y72.291 E2.25817
G1 X72.050 Y72.241 F7800.000
G4 P31
G1 X71.703 Y72.718 E2.26264 F1800.000
G1 X71.249 Y73.094 E2.26712
G1 X70.716 Y73.345 E2.27160
G1 X70.137 Y73.455 E2.27608
G1 X69.549 Y73.418 E2.28055
G1 X68.988 Y73.236 E2.28503
G1 X68.490 Y72.920 E2.28952
G1 X68.074 Y72.466 E2.29420
G1 X67.803 Y71.974 E2.29846
G1 X67.657 Y71.402 E2.30294
G1 X67.664 Y70.786 E2.30762
G1 X67.803 Y70.243 E2.31188
G1 X68.087 Y69.727 E2.31636
G1 X68.491 Y69.297 E2.32084
G1 X68.989 Y68.981 E2.32532
G1 X69.577 Y68.797 E2.33000
G1 X70.137 Y68.762 E2.33427 F1800.000
G1 X70.716 Y68.872 E2.33874
G1 X71.249 Y69.123 E2.34322
G1 X71.703 Y69.499 E2.34770
G1 X72.050 Y69.976 E2.35218
G1 X72.267 Y70.524 E2.35665
G1 X72.341 Y71.109 E2.36113
G1 X72.267 Y71.693 E2.36561
G1 X72.077 Y72.171 E2.36952
G1 X72.291 Y72.679 F7800.000
G1 E0.36952 F1920.00000
G92 E0
G1 X82.387 Y71.437 F7800.000
G1 E2.00000 F1920.00000
G1 X82.387 Y70.780 E2.00499 F1800.000
G1 X82.515 Y70.281 E2.00891
G1 X82.551 Y70.143 E2.00999
G1 X82.868 Y69.567 E2.01498
G1 X83.318 Y69.088 E2.01998
G1 X83.873 Y68.735 E2.02497
G1 X84.498 Y68.532 E2.02997
G1 X84.973 Y68.502 E2.03359
G1 X85.154 Y68.491 E2.03496 F1800.000
G1 X85.800 Y68.614 E2.03996
G1 X86.395 Y68.894 E2.04495
G1 X86.901 Y69.313 E2.04995
G1 X87.288 Y69.845 E2.05494
G1 X87.530 Y70.456 E2.05994
G1 X87.612 Y71.109 E2.06493
G1 X87.530 Y71.761 E2.06993
G1 X87.288 Y72.372 E2.07492
G1 X86.901 Y72.904 E2.07992
G1 X86.395 Y73.323 E2.08491
G1 X85.800 Y73.603 E2.08991
G1 X85.154 Y73.726 E2.09490
G1 X84.498 Y73.685 E2.09990
G1 X83.873 Y73.482 E2.10489
G1 X83.318 Y73.129 E2.10989
G1 X82.868 Y72.650 E2.11488
G1 X82.551 Y72.074 E2.11988
G1 X82.406 Y71.510 E2.12430
G1 X82.634 Y71.406 F7800.000
G1 X82.634 Y70.811 E2.12882 F1800.000
G1 X82.782 Y70.234 E2.13334
G1 X83.068 Y69.713 E2.13787
G1 X83.476 Y69.279 E2.14239
G1 X83.978 Y68.960 E2.14691
G1 X84.545 Y68.776 E2.15143
G1 X84.989 Y68.748 E2.15481
G1 X85.139 Y68.739 E2.15595 F1800.000
G1 X85.723 Y68.850 E2.16048
G1 X86.262 Y69.104 E2.16500
G1 X86.720 Y69.483 E2.16952
G1 X87.070 Y69.965 E2.17404
G1 X87.289 Y70.518 E2.17856
G1 X87.364 Y71.109 E2.18309
G1 X87.289 Y71.699 E2.18761
G1 X87.070 Y72.252 E2.19213
G1 X86.720 Y72.734 E2.19665
G1 X86.262 Y73.113 E2.20117
G1 X85.723 Y73.367 E2.20570
G1 X85.139 Y73.478 E2.21022
G1 X84.545 Y73.441 E2.21474
G1 X83.978 Y73.257 E2.21926
G1 X83.476 Y72.938 E2.22378
G1 X83.068 Y72.504 E2.22831
G1 X82.782 Y71.983 E2.23283
G1 X82.652 Y71.479 E2.23678
G1 X82.880 Y71.375 F7800.000
G1 X82.880 Y70.842 E2.24083 F1800.000
G1 X82.993 Y70.404 E2.24427
G1 X83.013 Y70.326 E2.24488
G1 X83.269 Y69.859 E2.24893
G1 X83.634 Y69.470 E2.25298
G1 X84.084 Y69.185 E2.25702
G1 X84.591 Y69.020 E2.26107
G1 X85.004 Y68.994 E2.26422
G1 X85.123 Y68.987 E2.26512 F1800.000
G1 X85.647 Y69.086 E2.26917
G1 X86.129 Y69.313 E2.27322
G1 X86.539 Y69.653 E2.27727
G1 X86.853 Y70.084 E2.28132
G1 X87.049 Y70.580 E2.28537
G1 X87.116 Y71.109 E2.28942
G1 X87.049 Y71.637 E2.29347
G1 X86.853 Y72.133 E2.29752
G1 X86.539 Y72.564 E2.30156
G1 X86.129 Y72.904 E2.30561
G1 X85.647 Y73.131 E2.30966
G1 X85.123 Y73.231 E2.31371
G1 X84.591 Y73.197 E2.31776
G1 X84.084 Y73.032 E2.32181
G1 X83.634 Y72.747 E2.32586
G1 X83.269 Y72.358 E2.32991
G1 X83.013 Y71.891 E2.33396
G1 X82.899 Y71.448 E2.33744
G1 X82.428 Y71.162 F7800.000
G1 E0.33744 F1920.00000
G92 E0
G1 X97.164 Y71.375 F7800.000
G1 E2.00000 F1920.00000
G1 X97.164 Y70.752 E2.00474 F1800.000
G1 X97.342 Y70.060 E2.01016
G1 X97.686 Y69.435 E2.01558
G1 X98.174 Y68.914 E2.02101
G1 X98.780 Y68.530 E2.02646
G1 X99.487 Y68.309 E2.03209
G1 X100.168 Y68.266 E2.03727 F1800.000
G1 X100.870 Y68.400 E2.04269
G1 X101.515 Y68.704 E2.04812
G1 X102.068 Y69.162 E2.05357
G1 X102.497 Y69.766 E2.05920
G1 X102.748 Y70.400 E2.06438
G1 X102.837 Y71.109 E2.06980
G1 X102.748 Y71.817 E2.07523
G1 X102.485 Y72.480 E2.08065
G1 X102.065 Y73.058 E2.08607
G1 X101.515 Y73.513 E2.09150
G1 X100.870 Y73.817 E2.09692
G1 X100.168 Y73.951 E2.10234
G1 X99.456 Y73.906 E2.10777
G1 X98.777 Y73.685 E2.11319
G1 X98.174 Y73.303 E2.11861
G1 X97.686 Y72.782 E2.12404
G1 X97.342 Y72.157 E2.12946
G1 X97.164 Y71.450 E2.13500
G1 X97.410 Y71.375 F7800.000
G1 X97.410 Y70.783 E2.13950 F1800.000
G1 X97.573 Y70.152 E2.14445
G1 X97.886 Y69.581 E2.14940
G1 X98.333 Y69.106 E2.15435
G1 X98.885 Y68.755 E2.15932
G1 X99.532 Y68.553 E2.16447
G1 X100.153 Y68.514 E2.16919 F1800.000
G1 X100.793 Y68.636 E2.17414
G1 X101.382 Y68.914 E2.17909
G1 X101.886 Y69.331 E2.18406
G1 X102.278 Y69.884 E2.18922
G1 X102.507 Y70.462 E2.19394
G1 X102.589 Y71.109 E2.19889
G1 X102.507 Y71.755 E2.20384
G1 X102.267 Y72.361 E2.20879
G1 X101.884 Y72.888 E2.21374
G1 X101.382 Y73.303 E2.21869
G1 X100.793 Y73.581 E2.22364
G1 X100.153 Y73.703 E2.22859
G1 X99.502 Y73.662 E2.23354
G1 X98.883 Y73.461 E2.23849
G1 X98.333 Y73.111 E2.24344
G1 X97.886 Y72.636 E2.24839
G1 X97.573 Y72.065 E2.25334
G1 X97.414 Y71.450 E2.25818
G1 X97.657 Y71.375 F7800.000
G1 X97.657 Y70.814 E2.26244 F1800.000
G1 X97.803 Y70.243 E2.26692
G1 X98.087 Y69.727 E2.27139
G1 X98.491 Y69.297 E2.27587
G1 X98.989 Y68.981 E2.28036
G1 X99.577 Y68.797 E2.28504
G1 X100.137 Y68.762 E2.28930 F1800.000
G1 X100.716 Y68.872 E2.29378
G1 X101.249 Y69.123 E2.29825
G1 X101.704 Y69.500 E2.30274
G1 X102.060 Y70.002 E2.30742
G1 X102.267 Y70.524 E2.31168
G1 X102.341 Y71.109 E2.31616
G1 X102.267 Y71.693 E2.32063
G1 X102.050 Y72.241 E2.32511
G1 X101.703 Y72.718 E2.32959
G1 X101.249 Y73.094 E2.33407
G1 X100.716 Y73.345 E2.33854
G1 X100.137 Y73.455 E2.34302
G1 X99.549 Y73.418 E2.34750
G1 X98.988 Y73.236 E2.35198
G1 X98.491 Y72.920 E2.35645
G1 X98.087 Y72.491 E2.36093
G1 X97.803 Y71.974 E2.36541
G1 X97.668 Y71.449 E2.36953
G1 X97.205 Y71.160 F7800.000
G1 E0.36953 F1920.00000
G92 E0
G1 X103.665 Y80.279 F7800.000
G1 E2.00000 F1920.00000
G1 X103.339 Y80.414 E2.00268 F1800.000
G1 X102.947 Y80.466 E2.00568
G1 X67.032 Y80.466 E2.27855
G1 X66.640 Y80.414 E2.28155
G1 X66.314 Y80.279 E2.28423
G1 X66.034 Y80.064 E2.28691
G1 X65.819 Y79.784 E2.28959
G1 X65.684 Y79.458 E2.29227
G1 X65.632 Y79.066 E2.29528
G1 X65.632 Y63.151 E2.41619
G1 X65.684 Y62.759 E2.41920
G1 X65.819 Y62.433 E2.42188
G1 X66.034 Y62.153 E2.42456
G1 X66.314 Y61.938 E2.42724
G1 X66.640 Y61.803 E2.42992
G1 X67.032 Y61.751 E2.43292
G1 X102.973 Y61.755 E2.70598
G1 X103.339 Y61.803 E2.70879
G1 X103.665 Y61.938 E2.71147
G1 X103.945 Y62.153 E2.71415
G1 X104.160 Y62.433 E2.71683
G1 X104.295 Y62.759 E2.71951
G1 X104.347 Y63.151 E2.72251
G1 X104.347 Y79.066 E2.84343
G1 X104.295 Y79.458 E2.84643
G1 X104.160 Y79.784 E2.84912
G1 X103.945 Y80.064 E2.85180
G1 X103.725 Y80.234 E2.85391
G1 X103.790 Y80.494 F7800.000
G4 P31
G1 X103.404 Y80.654 E2.85708 F1800.000
G1 X102.964 Y80.712 E2.86045
G1 X67.015 Y80.712 E3.13356
G1 X66.575 Y80.654 E3.13693
G1 X66.189 Y80.494 E3.14011
G1 X65.858 Y80.240 E3.14328
G1 X65.604 Y79.909 E3.14645
G1 X65.444 Y79.523 E3.14963
G1 X65.386 Y79.083 E3.15300
G1 X65.386 Y63.134 E3.27416
G1 X65.444 Y62.694 E3.27754
G1 X65.604 Y62.308 E3.28071
G1 X65.858 Y61.977 E3.28388
G1 X66.189 Y61.723 E3.28706
G1 X66.575 Y61.563 E3.29023
G1 X67.015 Y61.505 E3.29360
G1 X102.989 Y61.508 E3.56691
G1 X103.404 Y61.563 E3.57008
G1 X103.790 Y61.723 E3.57325
G1 X104.121 Y61.977 E3.57643
G1 X104.375 Y62.308 E3.57960
G1 X104.535 Y62.694 E3.58278
G1 X104.593 Y63.134 E3.58615
G1 X104.593 Y79.083 E3.70731
G1 X104.535 Y79.523 E3.71068
G1 X104.375 Y79.909 E3.71386
G1 X104.121 Y80.240 E3.71703
G1 X103.849 Y80.449 E3.71963
G1 X103.940 Y80.690 F7800.000
