; generated by Slic3r 1.2.9 on 2016-08-10 at 20:25:51

; external perimeters extrusion width = 0.50mm
; perimeters extrusion width = 0.50mm
; infill extrusion width = 0.50mm
; solid infill extrusion width = 0.50mm
; top infill extrusion width = 0.50mm

M107
M190 S60 ; set bed temperature
M104 S210 ; set temperature
G28 ; home all axes
M109 S210 ; wait for temperature to be reached
G21 ; set units to millimeters
G90 ; use absolute coordinates
M82 ; use absolute distances for extrusion
G92 E0
G1 Z0.350 F7800.000
G1 E-2.00000 F1920.00000
G92 E0
G1 X54.274 Y44.688 F7800.000
G1 E2.00000 F1920.00000
M204 S3000
G1 X55.352 Y43.599 E2.01164 F1800.000
G1 X56.109 Y43.285 E2.01787
G1 X86.892 Y35.248 E2.25958
G1 X87.257 Y35.176 E2.26240
G1 X88.292 Y35.040 E2.27033
G1 X88.682 Y35.015 E2.27330
G1 X109.682 Y35.015 E2.43284
G1 X110.071 Y35.040 E2.43581
G1 X111.107 Y35.176 E2.44374 F1800.000
G1 X111.859 Y35.378 E2.44966
G1 X112.824 Y35.778 E2.45759
G1 X113.499 Y36.167 E2.46352
G1 X114.327 Y36.803 E2.47145
G1 X114.879 Y37.354 E2.47737
G1 X115.514 Y38.183 E2.48530
G1 X115.904 Y38.857 E2.49122
G1 X116.304 Y39.822 E2.49916
G1 X116.505 Y40.575 E2.50508
G1 X116.642 Y41.610 E2.51301
G1 X116.667 Y42.000 E2.51598
G1 X116.667 Y78.000 E2.78948
G1 X116.642 Y78.390 E2.79245
G1 X116.505 Y79.425 E2.80038
G1 X116.304 Y80.178 E2.80630
G1 X115.904 Y81.143 E2.81423
G1 X115.514 Y81.817 E2.82015
G1 X114.879 Y82.646 E2.82809
G1 X114.327 Y83.197 E2.83401
G1 X113.499 Y83.833 E2.84194
G1 X112.824 Y84.222 E2.84786
G1 X111.859 Y84.622 E2.85579
G1 X111.107 Y84.824 E2.86172
G1 X110.071 Y84.960 E2.86965
G1 X109.682 Y84.985 E2.87262
G1 X88.682 Y84.985 E3.03216
G1 X88.292 Y84.960 E3.03512
G1 X87.257 Y84.824 E3.04306
G1 X86.532 Y84.633 E3.04875
G1 X55.725 Y72.232 E3.30105
G1 X54.498 Y71.314 E3.31269
G1 X53.855 Y69.462 E3.32758
G1 X53.878 Y46.168 E3.50455
G1 X54.254 Y44.760 E3.51563
G1 X54.519 Y44.756 F7800.000
G1 X56.171 Y43.523 E3.53129 F1800.000
G1 X86.954 Y35.486 E3.77299
G1 X87.289 Y35.421 E3.77558
G1 X88.324 Y35.284 E3.78352
G1 X88.682 Y35.261 E3.78624
G1 X109.682 Y35.261 E3.94578
G1 X110.039 Y35.284 E3.94850
G1 X111.075 Y35.421 E3.95644 F1800.000
G1 X111.765 Y35.606 E3.96187
G1 X112.730 Y36.005 E3.96980
G1 X113.349 Y36.363 E3.97523
G1 X114.178 Y36.999 E3.98317
G1 X114.683 Y37.504 E3.98860
G1 X115.319 Y38.333 E3.99653
G1 X115.676 Y38.952 E4.00196
G1 X116.076 Y39.917 E4.00990
G1 X116.261 Y40.607 E4.01533
G1 X116.397 Y41.642 E4.02326
G1 X116.421 Y42.000 E4.02599
G1 X116.421 Y78.000 E4.29949
G1 X116.397 Y78.358 E4.30221
G1 X116.261 Y79.393 E4.31014
G1 X116.076 Y80.083 E4.31557
G1 X115.676 Y81.048 E4.32351
G1 X115.319 Y81.667 E4.32894
G1 X114.683 Y82.496 E4.33687
G1 X114.178 Y83.001 E4.34230
G1 X113.349 Y83.637 E4.35024
G1 X112.730 Y83.995 E4.35567
G1 X111.765 Y84.394 E4.36360
G1 X111.074 Y84.579 E4.36904
G1 X110.039 Y84.716 E4.37697
G1 X109.682 Y84.739 E4.37969
G1 X88.682 Y84.739 E4.53923
G1 X88.324 Y84.716 E4.54196
G1 X87.289 Y84.579 E4.54989
G1 X86.624 Y84.405 E4.55511
G1 X55.817 Y72.003 E4.80741
G1 X54.653 Y71.111 E4.81855
G1 X54.101 Y69.462 E4.83176
G1 X54.124 Y46.169 E5.00873
G1 X54.499 Y44.829 E5.01930
G1 X54.765 Y44.828 F7800.000
G1 X56.234 Y43.762 E5.03309 F1800.000
G1 X87.017 Y35.724 E5.27480
G1 X87.321 Y35.665 E5.27716
G1 X88.356 Y35.529 E5.28509
G1 X88.682 Y35.507 E5.28757
G1 X109.682 Y35.507 E5.44711
G1 X110.007 Y35.529 E5.44959
G1 X111.043 Y35.665 E5.45752 F1800.000
G1 X111.671 Y35.833 E5.46246
G1 X112.636 Y36.233 E5.47040
G1 X113.199 Y36.558 E5.47534
G1 X114.028 Y37.194 E5.48327
G1 X114.488 Y37.654 E5.48822
G1 X115.123 Y38.483 E5.49615
G1 X115.449 Y39.046 E5.50109
G1 X115.848 Y40.011 E5.50903
G1 X116.017 Y40.639 E5.51397
G1 X116.153 Y41.675 E5.52190
G1 X116.174 Y42.000 E5.52438
G1 X116.174 Y78.000 E5.79788
G1 X116.153 Y78.325 E5.80036
G1 X116.017 Y79.361 E5.80829
G1 X115.848 Y79.989 E5.81324
G1 X115.449 Y80.954 E5.82117
G1 X115.123 Y81.517 E5.82611
G1 X114.488 Y82.346 E5.83405
G1 X114.028 Y82.806 E5.83899
G1 X113.199 Y83.442 E5.84692
G1 X112.636 Y83.767 E5.85187
G1 X111.671 Y84.167 E5.85980
G1 X111.042 Y84.335 E5.86474
G1 X110.007 Y84.471 E5.87268
G1 X109.682 Y84.493 E5.87515
G1 X88.682 Y84.493 E6.03470
G1 X88.356 Y84.471 E6.03717
G1 X87.321 Y84.335 E6.04511
G1 X86.716 Y84.176 E6.04986
G1 X55.909 Y71.775 E6.30216
G1 X54.811 Y70.910 E6.31278
G1 X54.347 Y69.462 E6.32433
G1 X54.371 Y46.169 E6.50129
G1 X54.744 Y44.900 E6.51134
G1 X55.010 Y44.904 F7800.000
G4 P31
G1 X56.296 Y44.000 E6.52328 F1800.000
G1 X87.079 Y35.963 E6.76499
G1 X87.353 Y35.909 E6.76711
G1 X88.389 Y35.773 E6.77505
G1 X88.682 Y35.754 E6.77728
G1 X109.682 Y35.754 E6.93682
G1 X109.975 Y35.773 E6.93905
G1 X111.010 Y35.909 E6.94699 F1800.000
G1 X111.577 Y36.061 E6.95144
G1 X112.541 Y36.461 E6.95938
G1 X113.049 Y36.754 E6.96383
G1 X113.878 Y37.389 E6.97176
G1 X114.292 Y37.804 E6.97622
G1 X114.928 Y38.633 E6.98415
G1 X115.221 Y39.140 E6.98861
G1 X115.621 Y40.105 E6.99654
G1 X115.772 Y40.672 E7.00100
G1 X115.909 Y41.707 E7.00893
G1 X115.928 Y42.000 E7.01116
G1 X115.928 Y78.000 E7.28466
G1 X115.909 Y78.293 E7.28689
G1 X115.772 Y79.329 E7.29483
G1 X115.621 Y79.895 E7.29928
G1 X115.221 Y80.860 E7.30722
G1 X114.928 Y81.367 E7.31167
G1 X114.292 Y82.196 E7.31960
G1 X113.878 Y82.611 E7.32406
G1 X113.049 Y83.246 E7.33199
G1 X112.541 Y83.539 E7.33645
G1 X111.577 Y83.939 E7.34438
G1 X111.010 Y84.091 E7.34884
G1 X109.975 Y84.227 E7.35677
G1 X109.682 Y84.246 E7.35900
G1 X88.682 Y84.246 E7.51854
G1 X88.388 Y84.227 E7.52078
G1 X87.353 Y84.091 E7.52871
G1 X86.808 Y83.948 E7.53300
G1 X56.001 Y71.546 E7.78529
G1 X54.972 Y70.710 E7.79536
G1 X54.594 Y69.462 E7.80527
G1 X54.617 Y46.170 E7.98223
G1 X54.988 Y44.976 E7.99173
G1 E5.99173 F1920.00000
G92 E0
G1 X91.029 Y78.000 F7800.000
G1 E2.00000 F1920.00000
G1 X90.956 Y78.584 E2.00447 F1800.000
G1 X90.739 Y79.131 E2.00894
G1 X90.393 Y79.607 E2.01341
G1 X89.940 Y79.982 E2.01788
G1 X89.407 Y80.233 E2.02236
G1 X88.829 Y80.343 E2.02683
G1 X88.242 Y80.306 E2.03130
G1 X87.682 Y80.124 E2.03577
G1 X87.185 Y79.809 E2.04024
G1 X86.782 Y79.380 E2.04471
G1 X86.499 Y78.864 E2.04918
G1 X86.352 Y78.294 E2.05365
G1 X86.352 Y77.706 E2.05812
G1 X86.499 Y77.136 E2.06260
G1 X86.782 Y76.620 E2.06707
G1 X87.185 Y76.191 E2.07154
G1 X87.682 Y75.876 E2.07601
G1 X88.242 Y75.694 E2.08048
G1 X88.829 Y75.657 E2.08495 F1800.000
G1 X89.407 Y75.767 E2.08942
G1 X89.940 Y76.018 E2.09389
G1 X90.393 Y76.393 E2.09836
G1 X90.739 Y76.869 E2.10284
G1 X90.956 Y77.416 E2.10731
G1 X91.020 Y77.926 E2.11121
G1 X90.781 Y78.000 F7800.000
G1 X90.715 Y78.522 E2.11521 F1800.000
G1 X90.521 Y79.011 E2.11920
G1 X90.212 Y79.437 E2.12320
G1 X89.807 Y79.773 E2.12720
G1 X89.330 Y79.997 E2.13120
G1 X88.813 Y80.095 E2.13520
G1 X88.288 Y80.062 E2.13920
G1 X87.788 Y79.900 E2.14319
G1 X87.343 Y79.618 E2.14719
G1 X86.983 Y79.234 E2.15119
G1 X86.730 Y78.773 E2.15519
G1 X86.599 Y78.263 E2.15919
G1 X86.599 Y77.737 E2.16319
G1 X86.730 Y77.227 E2.16718
G1 X86.983 Y76.766 E2.17118
G1 X87.343 Y76.382 E2.17518
G1 X87.788 Y76.100 E2.17918
G1 X88.288 Y75.938 E2.18318
G1 X88.813 Y75.905 E2.18717 F1800.000
G1 X89.330 Y76.003 E2.19117
G1 X89.807 Y76.227 E2.19517
G1 X90.212 Y76.563 E2.19917
G1 X90.521 Y76.989 E2.20317
G1 X90.715 Y77.478 E2.20717
G1 X90.772 Y77.926 E2.21059
G1 X90.533 Y78.000 F7800.000
G1 X90.475 Y78.460 E2.21412 F1800.000
G1 X90.304 Y78.892 E2.21765
G1 X90.031 Y79.267 E2.22117
G1 X89.674 Y79.563 E2.22470
G1 X89.254 Y79.761 E2.22822
G1 X88.798 Y79.848 E2.23175
G1 X88.335 Y79.818 E2.23527
G1 X87.893 Y79.675 E2.23880
G1 X87.502 Y79.426 E2.24232
G1 X87.184 Y79.088 E2.24585
G1 X86.960 Y78.681 E2.24937
G1 X86.845 Y78.232 E2.25290
G1 X86.845 Y77.768 E2.25642
G1 X86.960 Y77.319 E2.25995
G1 X87.184 Y76.912 E2.26347
G1 X87.502 Y76.574 E2.26700
G1 X87.893 Y76.325 E2.27053
G1 X88.335 Y76.182 E2.27405
G1 X88.798 Y76.152 E2.27758 F1800.000
G1 X89.254 Y76.239 E2.28110
G1 X89.674 Y76.437 E2.28463
G1 X90.031 Y76.733 E2.28815
G1 X90.304 Y77.108 E2.29168
G1 X90.475 Y77.540 E2.29520
G1 X90.523 Y77.926 E2.29816
G1 X90.925 Y78.249 F7800.000
G1 E0.29816 F1920.00000
G92 E0
G1 X89.132 Y70.655 F7800.000
G1 E2.00000 F1920.00000
G1 X88.798 Y70.719 E2.00258 F1800.000
G4 P21
G1 X88.335 Y70.690 E2.00610
G1 X87.895 Y70.547 E2.00962
G1 X87.504 Y70.299 E2.01314
G1 X87.187 Y69.961 E2.01666
G1 X86.964 Y69.555 E2.02018
G1 X86.848 Y69.107 E2.02370
G1 X86.848 Y68.643 E2.02722
G1 X86.964 Y68.195 E2.03074
G1 X87.187 Y67.789 E2.03425
G1 X87.504 Y67.451 E2.03777
G1 X87.898 Y67.201 E2.04132
G1 X88.351 Y67.059 E2.04493
G1 X88.798 Y67.031 E2.04833 F1800.000
G1 X89.253 Y67.118 E2.05185
G1 X89.672 Y67.315 E2.05537
G1 X90.029 Y67.610 E2.05888
G1 X90.301 Y67.985 E2.06240
G1 X90.471 Y68.415 E2.06592
G1 X90.530 Y68.878 E2.06947
G1 X90.466 Y69.349 E2.07308
G1 X90.301 Y69.765 E2.07648
G1 X90.029 Y70.140 E2.07999
G1 X89.672 Y70.435 E2.08351
G1 X89.205 Y70.641 E2.08739
G1 X89.086 Y70.413 F7800.000
G4 P31
G1 X88.782 Y70.471 E2.08973 F1800.000
G4 P23
G1 X88.382 Y70.446 E2.09278
G1 X88.001 Y70.322 E2.09583
G1 X87.662 Y70.107 E2.09887
G1 X87.388 Y69.815 E2.10192
G1 X87.194 Y69.464 E2.10497
G1 X87.095 Y69.075 E2.10801
G1 X87.095 Y68.675 E2.11106
G1 X87.194 Y68.286 E2.11410
G1 X87.388 Y67.935 E2.11715
G1 X87.662 Y67.643 E2.12020
G1 X88.002 Y67.427 E2.12326
G1 X88.396 Y67.303 E2.12640
G1 X88.782 Y67.279 E2.12933 F1800.000
G1 X89.176 Y67.354 E2.13238
G1 X89.539 Y67.524 E2.13542
G1 X89.848 Y67.780 E2.13847
G1 X90.083 Y68.104 E2.14151
G1 X90.231 Y68.477 E2.14456
G1 X90.281 Y68.877 E2.14762
G1 X90.226 Y69.286 E2.15076
G1 X90.083 Y69.646 E2.15370
G1 X89.848 Y69.970 E2.15674
G1 X89.539 Y70.226 E2.15979
G1 X89.159 Y70.399 E2.16296
G1 X89.039 Y70.171 F7800.000
G4 P31
G1 X88.766 Y70.224 E2.16507 F1800.000
G4 P24
G1 X88.428 Y70.202 E2.16764
G1 X88.106 Y70.098 E2.17022
G1 X87.820 Y69.916 E2.17279
G1 X87.589 Y69.669 E2.17536
G1 X87.425 Y69.372 E2.17794
G1 X87.341 Y69.044 E2.18051
G1 X87.341 Y68.706 E2.18308
G1 X87.425 Y68.378 E2.18566
G1 X87.589 Y68.081 E2.18823
G1 X87.820 Y67.834 E2.19080
G1 X88.107 Y67.652 E2.19338
G1 X88.442 Y67.547 E2.19605
G1 X88.766 Y67.526 E2.19852 F1800.000
G1 X89.099 Y67.590 E2.20109
G1 X89.406 Y67.734 E2.20367
G1 X89.667 Y67.950 E2.20624
G1 X89.866 Y68.224 E2.20881
G1 X89.990 Y68.539 E2.21138
G1 X90.033 Y68.876 E2.21396
G1 X89.986 Y69.223 E2.21663
G1 X89.866 Y69.526 E2.21910
G1 X89.667 Y69.800 E2.22167
G1 X89.406 Y70.016 E2.22425
G1 X89.112 Y70.154 E2.22671
G1 X88.967 Y70.440 F7800.000
G1 E0.22671 F1920.00000
G92 E0
G1 X88.798 Y56.969 F7800.000
G1 E2.00000 F1920.00000
G1 X88.335 Y56.940 E2.00352 F1800.000
G1 X87.895 Y56.797 E2.00704
G1 X87.504 Y56.549 E2.01056
G1 X87.187 Y56.211 E2.01408
G1 X86.964 Y55.805 E2.01759
G1 X86.848 Y55.357 E2.02111
G1 X86.848 Y54.893 E2.02463
G1 X86.964 Y54.445 E2.02815
G1 X87.187 Y54.039 E2.03167
G1 X87.504 Y53.701 E2.03519
G1 X87.898 Y53.451 E2.03873
G1 X88.351 Y53.309 E2.04234
G1 X88.798 Y53.281 E2.04574 F1800.000
G1 X89.253 Y53.368 E2.04926
G1 X89.672 Y53.565 E2.05278
G1 X90.029 Y53.860 E2.05630
G1 X90.301 Y54.235 E2.05982
G1 X90.471 Y54.665 E2.06334
G1 X90.530 Y55.128 E2.06688
G1 X90.466 Y55.599 E2.07049
G1 X90.301 Y56.015 E2.07389
G1 X90.029 Y56.390 E2.07741
G1 X89.672 Y56.685 E2.08093
G1 X89.253 Y56.882 E2.08445
G1 X88.871 Y56.955 E2.08740
G1 X88.782 Y56.721 F7800.000
G1 X88.382 Y56.696 E2.09044 F1800.000
G1 X88.001 Y56.572 E2.09349
G1 X87.662 Y56.357 E2.09654
G1 X87.388 Y56.065 E2.09958
G1 X87.194 Y55.714 E2.10263
G1 X87.095 Y55.325 E2.10567
G1 X87.095 Y54.925 E2.10872
G1 X87.194 Y54.536 E2.11177
G1 X87.388 Y54.185 E2.11481
G1 X87.662 Y53.893 E2.11786
G1 X88.002 Y53.677 E2.12092
G1 X88.396 Y53.553 E2.12406
G1 X88.782 Y53.529 E2.12699 F1800.000
G1 X89.176 Y53.604 E2.13004
G1 X89.539 Y53.774 E2.13309
G1 X89.848 Y54.030 E2.13613
G1 X90.083 Y54.354 E2.13918
G1 X90.231 Y54.727 E2.14222
G1 X90.281 Y55.127 E2.14529
G1 X90.226 Y55.536 E2.14842
G1 X90.083 Y55.896 E2.15136
G1 X89.848 Y56.220 E2.15441
G1 X89.539 Y56.475 E2.15745
G1 X89.176 Y56.646 E2.16050
G1 X88.856 Y56.707 E2.16297
G1 X88.766 Y56.474 F7800.000
G1 X88.428 Y56.452 E2.16555 F1800.000
G1 X88.106 Y56.348 E2.16812
G1 X87.820 Y56.166 E2.17069
G1 X87.589 Y55.919 E2.17327
G1 X87.425 Y55.622 E2.17584
G1 X87.341 Y55.294 E2.17841
G1 X87.341 Y54.956 E2.18099
G1 X87.425 Y54.628 E2.18356
G1 X87.589 Y54.331 E2.18613
G1 X87.820 Y54.084 E2.18871
G1 X88.107 Y53.902 E2.19128
G1 X88.442 Y53.797 E2.19395
G1 X88.766 Y53.776 E2.19642 F1800.000
G1 X89.099 Y53.840 E2.19900
G1 X89.406 Y53.984 E2.20157
G1 X89.667 Y54.200 E2.20414
G1 X89.866 Y54.474 E2.20671
G1 X89.990 Y54.789 E2.20929
G1 X90.033 Y55.126 E2.21187
G1 X89.986 Y55.473 E2.21453
G1 X89.866 Y55.776 E2.21700
G1 X89.667 Y56.050 E2.21958
G1 X89.406 Y56.266 E2.22215
G1 X89.099 Y56.410 E2.22472
G1 X88.840 Y56.459 E2.22673
G1 X88.603 Y56.770 F7800.000
G1 E0.22673 F1920.00000
G92 E0
G1 X88.829 Y44.343 F7800.000
G1 E2.00000 F1920.00000
G1 X88.242 Y44.306 E2.00447 F1800.000
G1 X87.682 Y44.124 E2.00894
G1 X87.185 Y43.809 E2.01341
G1 X86.782 Y43.380 E2.01788
G1 X86.499 Y42.864 E2.02236
G1 X86.352 Y42.294 E2.02683
G1 X86.352 Y41.706 E2.03130
G1 X86.499 Y41.136 E2.03577
G1 X86.782 Y40.620 E2.04024
G1 X87.185 Y40.191 E2.04471
G1 X87.682 Y39.876 E2.04918
G1 X88.242 Y39.694 E2.05365
G1 X88.829 Y39.657 E2.05812 F1800.000
G1 X89.407 Y39.767 E2.06260
G1 X89.940 Y40.018 E2.06707
G1 X90.393 Y40.393 E2.07154
G1 X90.739 Y40.869 E2.07601
G1 X90.956 Y41.416 E2.08048
G1 X91.029 Y42.000 E2.08495
G1 X90.956 Y42.584 E2.08942
G1 X90.739 Y43.131 E2.09389
G1 X90.393 Y43.607 E2.09836
G1 X89.940 Y43.982 E2.10284
G1 X89.407 Y44.233 E2.10731
G1 X88.903 Y44.329 E2.11121
G1 X88.813 Y44.095 F7800.000
G1 X88.288 Y44.062 E2.11521 F1800.000
G1 X87.788 Y43.900 E2.11920
G1 X87.343 Y43.618 E2.12320
G1 X86.983 Y43.234 E2.12720
G1 X86.730 Y42.773 E2.13120
G1 X86.599 Y42.263 E2.13520
G1 X86.599 Y41.737 E2.13920
G1 X86.730 Y41.227 E2.14319
G1 X86.983 Y40.766 E2.14719
G1 X87.343 Y40.382 E2.15119
G1 X87.788 Y40.100 E2.15519
G1 X88.288 Y39.938 E2.15919
G1 X88.813 Y39.905 E2.16319 F1800.000
G1 X89.330 Y40.003 E2.16718
G1 X89.807 Y40.227 E2.17118
G1 X90.212 Y40.563 E2.17518
G1 X90.521 Y40.989 E2.17918
G1 X90.715 Y41.478 E2.18318
G1 X90.781 Y42.000 E2.18717
G1 X90.715 Y42.522 E2.19117
G1 X90.521 Y43.011 E2.19517
G1 X90.212 Y43.437 E2.19917
G1 X89.807 Y43.773 E2.20317
G1 X89.330 Y43.997 E2.20717
G1 X88.887 Y44.081 E2.21059
G1 X88.798 Y43.848 F7800.000
G1 X88.335 Y43.818 E2.21412 F1800.000
G1 X87.893 Y43.675 E2.21764
G1 X87.502 Y43.426 E2.22117
G1 X87.184 Y43.088 E2.22470
G1 X86.960 Y42.681 E2.22822
G1 X86.845 Y42.232 E2.23175
G1 X86.845 Y41.768 E2.23527
G1 X86.960 Y41.319 E2.23880
G1 X87.184 Y40.912 E2.24232
G1 X87.502 Y40.574 E2.24585
G1 X87.893 Y40.325 E2.24937
G1 X88.335 Y40.182 E2.25290
G1 X88.798 Y40.152 E2.25642 F1800.000
G1 X89.254 Y40.239 E2.25995
G1 X89.674 Y40.437 E2.26347
G1 X90.031 Y40.733 E2.26700
G1 X90.304 Y41.108 E2.27053
G1 X90.475 Y41.540 E2.27405
G1 X90.533 Y42.000 E2.27758
G1 X90.475 Y42.460 E2.28110
G1 X90.304 Y42.892 E2.28463
G1 X90.031 Y43.267 E2.28815
G1 X89.674 Y43.563 E2.29168
G1 X89.254 Y43.761 E2.29520
G1 X88.872 Y43.833 E2.29816
G1 X88.574 Y44.254 F7800.000
G1 E0.29816 F1920.00000
G92 E0
G1 X107.352 Y42.294 F7800.000
G1 E2.00000 F1920.00000
G1 X107.352 Y41.706 E2.00447 F1800.000
G1 X107.499 Y41.136 E2.00894
G1 X107.782 Y40.620 E2.01341
G1 X108.185 Y40.191 E2.01788
G1 X108.682 Y39.876 E2.02236
G1 X109.242 Y39.694 E2.02683
G1 X109.829 Y39.657 E2.03130 F1800.000
G1 X110.407 Y39.767 E2.03577
G1 X110.940 Y40.018 E2.04024
G1 X111.393 Y40.393 E2.04471
G1 X111.739 Y40.869 E2.04918
G1 X111.956 Y41.416 E2.05365
G1 X112.029 Y42.000 E2.05812
G1 X111.956 Y42.584 E2.06260
G1 X111.739 Y43.131 E2.06707
G1 X111.393 Y43.607 E2.07154
G1 X110.940 Y43.982 E2.07601
G1 X110.407 Y44.233 E2.08048
G1 X109.829 Y44.343 E2.08495
G1 X109.242 Y44.306 E2.08942
G1 X108.682 Y44.124 E2.09389
G1 X108.185 Y43.809 E2.09836
G1 X107.782 Y43.380 E2.10284
G1 X107.499 Y42.864 E2.10731
G1 X107.371 Y42.367 E2.11121
G1 X107.599 Y42.263 F7800.000
G1 X107.599 Y41.737 E2.11521 F1800.000
G1 X107.730 Y41.227 E2.11920
G1 X107.983 Y40.766 E2.12320
G1 X108.343 Y40.382 E2.12720
